CFLai1990/PandaMat/client/data/SimulationsPlus_descriptors-normalization-withLabel - C2.csv
MWt,MolVol,VMcGowan,N_Atoms,N_Carbon,N_Ntrgen,N_Oxygen,N_Sulfur,N_Fluorn,N_Chlorn,N_Bromin,N_Iodine,N_Halogen,N_Bonds,N_FrRotB,F_SgleB,F_DbleB,F_TpleB,F_AromB,F_AFRBWF,N_Rings,N_AromR,N_AlipR,N_Pisyms,N_IsolLP,Herndon,X0,X1,X2,Kappa1,Kappa2,Kappa3,Wiener,T_RDmtr,Blbn_J,Blbn_MSD,SsCH3,SssCH2,SsssCH,SssssC,SdCH2,SdsCH,SdssC,SaaCH,SaasC,SaaaC,StCH,SddC,StsC,SsNH2,SssNH,SsssN,SdsN,SaaN,SddsN,StN,SsOH,SssO,SsO-,SdO,SddssS,SsSH,SssS,SdssS,SdS,SaaS,SsF,SsCl,SsBr,SsI,SHsOH,SHsNH2,SHssNH,SHsSH,SHCH_321,SHdCH2,SHdsCH,SHaaCH,SHtCH,AlHdrxl_-OH,ArHdrxl_-OH,Carbonyl_C=O,Ether___-O-,PriAmine_-NH2,PriAmAli_-NH2,PriAmAro_-NH2,SecAmine_>NH,TerAmine_>N-,ArNitrog_=N-,Nitrile_C#N,Thiol___-SH,Sulfide_-S-,Oxime___=N-O-,Hdrzine_>N-N<,Sulfoxde_>S=O,Nitro___-NO2,Sulfone_>S(=O)=O,Sulfite_-SO3<,Sulfate_-OSO3,AlCbxyl_-COOH,Ester___C(=O)OC,Amide___C(=O)N<,Thioamd_C(=S)N<,Isothcnt_-N=C=S,Carbmte_>NC(=O)O<,M_CX,M_NO,M_PRX,M_UB,M_HB,M_POL,M_RNG,M_NO2,M_NCS,H_AlAlco,H_AlAcid,H_Phenol,H_AlPyri,H_Nitrle,H_Nitro,H_MultiN,T_Rgrav,T_Rgeom,T_Radmax,T_Dipole,T_PSA,T_Grav3,IHB,PHB,HBD,HBA,HBDo,HBAo,HBDn,HBAn,HBDch,HBAch,HBDoch,HBAoch,HBDnch,HBAnch,ABSQ,ABSQon,MaxQ,MinQ,NPA_ABSQ,NPA_AQon,NPA_AQh,NPA_AQc,NPA_MaxQ,NPA_MinQ,NPA_Q1,NPA_Q2,NPA_Q3,NPA_Q4,NPA_Q5,NPA_Q6,EEM_AFon,EEM_AFc,EEM_AFpl,EEM_AFnp,EEM_MaxF,EEM_XFon,EEM_NFon,EEM_XFh,EEM_XFc,EEM_NFc,EEM_XFpl,EEM_NFpl,EEM_XFnp,EEM_NFnp,EEM_F1,EEM_F2,EEM_F3,EEM_F4,EEM_F5,EEM_F6,Pi_ABSQ,Pi_AQo,Pi_AQn,Pi_AQc,Pi_MaxQ,Pi_MinQ,Pi_Q1,Pi_Q2,Pi_Q3,Pi_Q4,Pi_Q5,Pi_Q6,Pi_AFPlc,Pi_AFMic,Pi_MaxFPl,Pi_MaxFMi,Pi_FPl1,Pi_FPl2,Pi_FPl3,Pi_FPl4,Pi_FPl5,Pi_FPl6,Pi_FMi1,Pi_FMi2,Pi_FMi3,Pi_FMi4,Pi_FMi5,Pi_FMi6,EqualChi,EqualEta,Elephity,N_Electr,PolarizG,PolarizM,N_IoAcAt,N_IoBaAt,FAnion,FCation,FUnion,FZwitter,QAvgNeg,QAvgPos,F_NLP,F_HBP,classId
-0.331663616,-0.415685825,-0.058452751,0.154718555,0.700960827,0.997965617,-1.292078976,-0.251627866,-0.157425134,-0.339309181,-0.269621433,-0.074676789,-0.477288403,0.273458805,-0.147206155,-1.079470331,-0.881541906,1.530617397,0.988948565,0.430875026,0.73593798,0.774122598,-0.14353473,2.823600931,-0.635987385,0.804567553,0.016243363,0.225215108,0.065161248,-0.167809597,-0.283566196,-0.587679785,-0.158140974,-0.285588367,-0.702840453,-0.150460148,-0.02938034,-0.619524735,0.092077491,0.124629083,-0.2147488,-0.355378327,0.249676245,1.412803715,0.46070321,-0.105911441,-0.159530093,-0.150296697,1.913236187,-0.382151316,-0.150784794,-0.066353987,-0.164518178,-0.079028304,0.2867953,4.204704985,-0.755783773,-0.469426775,-0.130970768,-0.75451132,0.104379548,-0.068382523,-0.0973487,0.08175189,-0.160954696,-0.03943615,-0.157417574,-0.337576286,-0.269132087,-0.075799687,-0.7517939,-0.379686951,-0.148008517,-0.068271574,-0.213209132,-0.211665483,-0.43429366,1.111647346,-0.159566121,-0.476518253,-0.391432627,-0.447124942,-0.216679922,-0.354787438,-0.239731651,-0.246891715,-0.112154431,-0.068411894,-0.079056942,3.994871476,-0.068411894,-0.107547531,-0.068411894,-0.083885323,-0.068411894,-0.319677662,-0.088457482,-0.055814557,-0.055814557,-0.234685532,-0.384865988,-0.068411894,-0.055814557,-0.150276151,-0.068411894,0.528853079,-0.662613197,-0.496865683,0.992478962,-0.264135272,-0.694597157,-0.169570026,-0.319677662,-0.150276151,-0.332181919,-0.246891715,-0.376621789,-0.055814557,4.373213921,-0.277350098,-0.079056942,-0.208109287,-0.126289565,-0.148074333,-0.613282855,-0.484907852,-0.1571425,-0.253043161,-0.237845018,-0.926801756,-0.697011793,-0.761303687,-1.292078976,-0.385528962,1.509127763,-0.904471416,1.262017413,-0.752090807,1.378983432,-0.390907498,-0.363460768,-0.776989908,-1.004425066,-1.803581066,1.332454482,-0.629260838,-1.23410371,-0.372988075,-0.064888031,-1.018125578,0.44678555,0.522309749,-0.544666691,0.528336523,-0.380136251,0.134656662,-0.003593057,-0.491582601,1.474513785,-0.659590291,1.348893393,-0.211677767,-0.185689445,0.498803421,-0.941677494,0.363010239,-0.448082968,-0.554590539,0.35933448,0.199502768,-0.441103883,0.528023774,0.290376576,0.629551571,0.513359696,0.271466353,-0.537390589,-0.568034215,-0.814537263,1.024392047,-0.355270822,-0.247999726,0.388598337,0.306604414,0.488255844,0.149661011,0.044992275,0.000974583,0.15583369,2.275597766,2.720083192,2.24614394,1.424267378,2.868686746,0.275029886,3.431192439,5.300718617,3.055010474,-0.175879281,3.431926209,1.816865881,3.848683865,1.441370474,3.147855252,2.301487301,-0.361998989,-0.111391188,-0.303652939,-0.335430063,0.16782879,0.185838889,-0.53921363,-0.448348266,-0.388079343,-0.28807459,0.511331233,-0.081645376,-0.368102447,-0.287172227,-1.138145523,-0.621797392,C2
0.157272327,0.892169669,1.069178937,0.501891897,0.700960827,-0.624988568,0.454193554,-0.251627866,-0.157425134,-0.339309181,-0.269621433,-0.074676789,-0.477288403,0.581338999,0.633047045,1.065267639,0.060134873,-0.30379051,-0.936126356,0.54271469,0.73593798,-0.898813487,6.966954969,-0.140374618,-0.635987385,-0.910177209,0.365359676,0.569917119,0.435830975,0.235498418,0.084553117,-0.317910894,0.325137042,0.658949785,-1.260311726,0.802096911,0.115361981,1.755677138,1.18978667,0.124629083,-0.2147488,-0.355378327,0.22676032,-0.737486883,-0.216145064,-0.105911441,-0.159530093,-0.150296697,-0.293603638,-0.382151316,-0.150784794,-0.066353987,-0.164518178,-0.079028304,0.2867953,-0.222119426,-0.755783773,1.583774712,-0.130970768,0.352753985,0.104379548,-0.068382523,-0.0973487,0.08175189,-0.160954696,-0.03943615,-0.157417574,-0.337576286,-0.269132087,-0.075799687,-0.7517939,-0.379686951,-0.148008517,-0.068271574,1.850454569,-0.211665483,-0.43429366,-0.807313835,-0.159566121,-0.476518253,-0.391432627,-0.447124942,-0.216679922,-0.354787438,-0.239731651,-0.246891715,-0.112154431,-0.068411894,-0.079056942,-0.222664968,-0.068411894,-0.107547531,-0.068411894,-0.083885323,-0.068411894,-0.319677662,-0.088457482,-0.055814557,-0.055814557,-0.234685532,1.889021133,-0.068411894,-0.055814557,-0.150276151,-0.068411894,0.528853079,0.103496137,0.08918102,-0.768282612,-0.264135272,-0.694597157,5.897268671,-0.319677662,-0.150276151,-0.332181919,-0.246891715,-0.376621789,-0.055814557,-0.22866478,-0.277350098,-0.079056942,0.716413498,0.797957875,1.042429012,1.029886658,-0.35932716,0.489455217,-0.253043161,-0.237845018,-0.926801756,0.253995823,-0.761303687,0.454193554,-0.385528962,-0.5114092,-0.904471416,-0.21822934,-0.752090807,-0.460647129,-0.390907498,0.48052558,0.257727662,0.190525393,0.884399138,-0.620988008,1.244225208,0.113533881,0.954367742,1.551657896,1.016570439,0.441274364,-0.319103681,-0.042438611,0.063736856,-0.189275144,0.017572017,0.595832794,-0.146107731,0.595118236,-0.484311382,0.496382476,-0.734321534,0.272284253,-0.685207703,-1.005028582,-0.435306972,0.160643941,-0.343025354,-0.598225165,-0.442735312,0.17127306,-0.099077319,-0.388995736,-0.809384005,-0.509418904,0.306748443,0.989214205,0.246083213,0.474540526,-0.514038393,0.101633943,0.427933775,-1.114572668,-0.607498062,-0.223730674,0.234654352,0.002345533,0.020651499,0.137189507,-0.346857653,-0.721883635,0.758111033,0.74782105,-0.063482243,-0.608914169,-0.57888455,-0.324115603,-0.314530823,-0.175879281,-0.475997711,0.045693515,-0.377799968,-0.395557496,-0.291771478,-0.185137829,-0.561758487,-0.541875581,0.025243789,0.320907075,0.751054978,0.484926786,-0.53921363,-0.448348266,-0.388079343,-0.28807459,0.511331233,-0.081645376,-0.368102447,-0.287172227,0.021002966,-0.621797392,C2
0.642392102,0.646946764,0.34407422,-0.53962813,-0.451597741,-0.624988568,-0.418942711,-0.251627866,-0.157425134,-0.339309181,1.928305184,-0.074676789,0.586288522,-0.650181775,1.023173644,1.385377784,-0.881541906,-0.30379051,-0.936126356,0.738434107,-0.927023631,-0.898813487,-0.14353473,-1.622362393,1.964494368,-0.910177209,-0.553861187,-0.437075238,-0.957378737,-0.208510406,1.109243446,0.765660818,-0.456162417,1.755288716,-0.047937989,0.397559297,-0.999994957,1.646397529,0.020328898,0.124629083,-0.2147488,-0.355378327,0.249676245,-0.737486883,-0.216145064,-0.105911441,-0.159530093,-0.150296697,-0.293603638,-0.382151316,-0.150784794,-0.066353987,-0.164518178,-0.079028304,0.2867953,-0.222119426,0.687379499,-0.469426775,-0.130970768,-0.75451132,0.104379548,-0.068382523,-0.0973487,0.08175189,-0.160954696,-0.03943615,-0.157417574,-0.337576286,2.011004438,-0.075799687,0.630113092,-0.379686951,-0.148008517,-0.068271574,0.790393071,-0.211665483,-0.43429366,-0.807313835,-0.159566121,1.654577266,-0.391432627,-0.447124942,-0.216679922,-0.354787438,-0.239731651,-0.246891715,-0.112154431,-0.068411894,-0.079056942,-0.222664968,-0.068411894,-0.107547531,-0.068411894,-0.083885323,-0.068411894,-0.319677662,-0.088457482,-0.055814557,-0.055814557,-0.234685532,-0.384865988,-0.068411894,-0.055814557,-0.150276151,-0.068411894,-0.058018919,-0.662613197,-0.496865683,-1.355203137,-0.264135272,-0.694597157,-0.169570026,-0.319677662,-0.150276151,-0.332181919,-0.246891715,-0.376621789,-0.055814557,-0.22866478,-0.277350098,-0.079056942,0.616003657,0.338872802,1.302149244,-0.976809966,-0.6630223,0.766639637,-0.253043161,-0.237845018,0.477575493,-0.697011793,0.74724885,-0.418942711,-0.385528962,-0.5114092,0.249350477,0.448273131,0.665119514,0.165514388,-0.390907498,0.48052558,-0.432133343,-0.382704207,0.162779168,-0.548572627,-0.001715572,-0.4932594,0.558312419,-0.180253224,-0.336131905,-0.724716464,1.088965785,-1.187794912,0.171757846,0.003939004,0.123188418,0.114701129,-0.889936277,-0.711669186,0.144665658,-0.767794806,0.422343042,-1.207091312,-0.619246081,0.8035428,-0.312681444,0.2991221,1.096146688,-0.544879224,-0.33812244,0.310581559,-0.229816574,-0.253851781,-0.736295214,-0.382664291,0.336990235,1.005283729,-1.029075626,-0.814537263,-0.514038393,-1.247637909,-1.167551515,1.153029171,0.763655652,0.474433427,0.234654352,0.002345533,0.020651499,0.137189507,-1.48849773,-0.737109613,-1.33728604,-1.737991029,-0.836846481,-0.835452596,-0.57888455,-0.324115603,-0.314530823,-0.175879281,-0.505633432,-0.668266843,-0.377799968,-0.395557496,-0.291771478,-0.185137829,-0.731853409,-0.141750605,-0.437626498,0.567033501,0.236219866,-0.000255984,-0.53921363,-0.448348266,-0.388079343,-0.28807459,0.511331233,-0.081645376,-0.368102447,-0.287172227,-0.478630004,0.217688909,C2
-0.546898856,-0.742649699,-0.414053003,-0.192454788,0.316774638,-0.624988568,-0.418942711,-0.251627866,-0.157425134,-0.339309181,-0.269621433,-0.074676789,-0.477288403,-0.034421388,-0.927459354,-1.353342345,0.269511483,-0.30379051,1.202845779,-1.414479463,0.73593798,0.774122598,-0.14353473,-0.140374618,-0.635987385,0.804567553,-0.332872949,-0.131498707,-0.198837715,-0.570295374,-0.636564784,-0.747838436,-0.44005315,-0.615427084,-0.572732916,-0.593657327,-0.018017047,-0.619524735,0.020328898,0.124629083,-0.2147488,0.897935647,0.249676245,0.912716664,0.910015255,-0.105911441,-0.159530093,-0.150296697,-0.293603638,-0.382151316,-0.150784794,-0.066353987,-0.164518178,-0.079028304,0.2867953,-0.222119426,-0.755783773,-0.469426775,-0.130970768,0.307418171,0.104379548,-0.068382523,-0.0973487,0.08175189,-0.160954696,-0.03943615,-0.157417574,-0.337576286,-0.269132087,-0.075799687,-0.7517939,-0.379686951,-0.148008517,-0.068271574,-0.767724188,-0.211665483,1.775318873,0.743600127,-0.159566121,-0.476518253,-0.391432627,1.893919469,-0.216679922,-0.354787438,-0.239731651,-0.246891715,-0.112154431,-0.068411894,-0.079056942,-0.222664968,-0.068411894,-0.107547531,-0.068411894,-0.083885323,-0.068411894,-0.319677662,-0.088457482,-0.055814557,-0.055814557,-0.234685532,-0.384865988,-0.068411894,-0.055814557,-0.150276151,-0.068411894,0.13760508,-0.662613197,-0.496865683,0.992478962,-0.264135272,0.079313862,-0.169570026,-0.319677662,-0.150276151,-0.332181919,-0.246891715,-0.376621789,-0.055814557,-0.22866478,-0.277350098,-0.079056942,-0.594866755,-0.564517445,-0.557724736,-0.075821699,-0.821123888,-0.406065505,-0.253043161,-0.237845018,-0.926801756,-0.697011793,-0.761303687,-0.418942711,-0.385528962,-0.5114092,-0.904471416,0.826483442,-0.752090807,0.520833015,-0.390907498,0.48052558,-0.6417511,-0.471897338,-0.684478404,-0.278717281,-0.760544513,-0.837587419,-0.602432954,-0.342469618,-0.896480418,0.193125148,0.198618811,-0.122724764,-0.173353778,0.317271677,-0.102317942,0.006125949,-0.10497977,1.257338224,-0.463444845,1.137036576,-0.211677767,0.805582573,1.583872111,-0.906936575,0.363010239,0.025050743,-0.096663264,1.236875214,0.199502768,0.034866821,0.960312986,0.509528935,1.269078494,0.688193645,-0.837399355,-1.297479081,0.100184032,-0.110646645,-0.514038393,1.050838724,0.389591676,-0.602888244,-1.265819569,0.852179358,-1.044848284,0.485453164,-0.459584238,0.137189507,-0.024682815,0.893419542,-0.626222456,-0.920432607,-0.476983222,0.417240538,-0.074774046,-0.054686044,-0.04608156,-0.175879281,-0.140020746,0.017132699,0.474092358,-0.254484816,-0.189276125,-0.185137829,-0.373050527,0.278533122,-0.606819087,-0.581556489,-0.297124269,-0.221737737,-0.53921363,-0.448348266,-0.388079343,-0.28807459,0.511331233,-0.081645376,-0.368102447,-0.287172227,-0.600762508,-0.621797392,C2
-0.52676959,-0.252203889,0.074158682,-0.192454788,0.316774638,0.997965617,-1.292078976,-0.251627866,-0.157425134,-0.339309181,-0.269621433,-0.074676789,-0.477288403,-0.034421388,-0.537332755,-0.962096612,-0.881541906,-0.30379051,1.202845779,-0.047550214,0.73593798,0.774122598,-0.14353473,-0.140374618,-0.635987385,0.804567553,-0.332872949,-0.143510511,-0.121123178,-0.570295374,-0.636564784,-0.666362378,-0.407834616,0.209169716,-0.836148956,-0.376331001,0.089422117,-0.214157248,0.020328898,0.124629083,-0.2147488,-0.355378327,0.249676245,1.012883235,1.138357941,-0.105911441,-0.159530093,-0.150296697,-0.293603638,2.664156789,-0.150784794,-0.066353987,-0.164518178,-0.079028304,0.2867953,-0.222119426,-0.755783773,-0.469426775,-0.130970768,-0.75451132,0.104379548,-0.068382523,-0.0973487,0.08175189,-0.160954696,-0.03943615,-0.157417574,-0.337576286,-0.269132087,-0.075799687,-0.7517939,2.55311544,-0.148008517,-0.068271574,-0.498829065,-0.211665483,-0.43429366,0.719235846,-0.159566121,-0.476518253,-0.391432627,-0.447124942,-0.216679922,2.818589088,-0.239731651,4.050358676,-0.112154431,-0.068411894,-0.079056942,-0.222664968,-0.068411894,-0.107547531,-0.068411894,-0.083885323,-0.068411894,-0.319677662,-0.088457482,-0.055814557,-0.055814557,-0.234685532,-0.384865988,-0.068411894,-0.055814557,-0.150276151,-0.068411894,0.13760508,-0.662613197,-0.496865683,0.405558437,-0.264135272,0.079313862,-0.169570026,-0.319677662,-0.150276151,-0.332181919,-0.246891715,-0.376621789,-0.055814557,-0.22866478,-0.277350098,-0.079056942,-0.372794887,-0.359821871,-0.227948157,-1.130154867,-0.373336161,-0.364335,-0.253043161,-0.237845018,0.477575493,-0.697011793,-0.761303687,-1.292078976,2.097277551,1.509127763,1.090905881,0.355942984,-0.752090807,1.378983432,2.27892051,-1.963604941,-0.509313006,-1.214886397,-1.046964844,1.969208845,-0.008170594,-0.409200728,0.358632623,-0.024362868,-0.559729838,-1.105025831,0.4589659,0.082905014,0.188262425,-0.951246404,0.718255131,0.233224729,-0.149170918,0.16364669,-0.485865509,0.078979831,-0.638013558,0.692273914,1.4598419,0.300811965,-0.288200434,-0.326914578,-0.149007247,1.135517926,-0.324389598,-0.319208947,-0.272511805,-0.304987331,0.446829593,0.32978405,-0.43921576,-0.028522324,-0.452773862,-0.814537263,1.284554519,-0.070287393,-0.092495219,0.782599571,0.798458636,0.360860705,0.173900989,-0.268527918,0.020651499,0.137189507,0.329905891,-0.100435036,-0.502899244,0.160451765,-0.423124581,0.275029886,0.17849301,-0.324115603,-0.314530823,-0.175879281,-0.425128331,0.300347074,-0.324227261,0.012897123,-0.291771478,-0.185137829,-0.392923447,-0.367811253,-0.077559687,-0.499514347,0.075374077,0.090743466,-0.53921363,2.019483215,-0.388079343,-0.281359534,0.506737049,-0.081645376,-0.368102447,-0.280548737,-1.09012684,0.869130278,C2
-0.196032681,-0.906131636,-0.682925725,0.154718555,-0.451597741,2.620919802,0.454193554,-0.251627866,-0.157425134,-0.339309181,-0.269621433,-0.074676789,-0.477288403,0.273458805,-0.927459354,-1.079470331,0.154406145,-0.30379051,0.988948565,-1.414479463,0.73593798,0.774122598,-0.14353473,-0.140374618,-0.635987385,0.804567553,0.096788038,0.122368842,0.432726683,-0.167809597,-0.558282102,-0.587679785,-0.190359508,-1.027725488,-0.521806209,-0.293288266,-0.999994957,-0.619524735,0.020328898,0.124629083,-0.2147488,-0.355378327,0.249676245,0.553603218,0.057013618,-0.105911441,-0.159530093,-0.150296697,-0.293603638,2.558881257,-0.150784794,-0.066353987,-0.164518178,-0.079028304,-1.191842796,-0.222119426,-0.755783773,-0.469426775,-0.130970768,1.343562548,0.104379548,-0.068382523,-0.0973487,0.08175189,-0.160954696,-0.03943615,-0.157417574,-0.337576286,-0.269132087,-0.075799687,-0.7517939,2.746987741,-0.148008517,-0.068271574,-1.150578217,-0.211665483,-0.43429366,0.939949209,-0.159566121,-0.476518253,-0.391432627,-0.447124942,-0.216679922,2.818589088,-0.239731651,4.050358676,-0.112154431,-0.068411894,-0.079056942,-0.222664968,-0.068411894,-0.107547531,-0.068411894,-0.083885323,-0.068411894,2.102350742,-0.088457482,-0.055814557,-0.055814557,-0.234685532,-0.384865988,-0.068411894,-0.055814557,-0.150276151,-0.068411894,-0.644890917,1.635714804,1.84732113,0.405558437,-0.264135272,0.853224882,-0.169570026,2.102350742,-0.150276151,-0.332181919,-0.246891715,-0.376621789,-0.055814557,-0.22866478,-0.277350098,-0.079056942,-0.277136037,-0.261654864,-0.540736474,1.714948029,1.919136873,0.002390036,-0.253043161,-0.237845018,0.477575493,1.205003438,-0.761303687,0.454193554,2.097277551,1.509127763,1.38617853,-0.91682433,-0.752090807,0.091968795,2.673997266,-1.79201106,0.405440139,0.806956025,1.04455336,-0.531034532,-0.418005569,1.380526807,-0.500323763,-1.072989344,-0.348300317,-0.704804663,-0.206204849,0.440534166,0.09931559,-0.520686611,1.207936424,-1.0052585,2.494736885,-1.000810744,0.855538216,-1.047508387,-0.891606179,0.814621527,1.270554404,0.386651769,-0.675552904,-0.228825882,-0.092487636,0.983481993,-0.636010721,-0.220532093,0.117082177,-0.009131647,0.538190582,0.211771135,0.528521585,0.164311965,1.130232248,1.247154193,2.893389481,-0.381793935,2.197525431,-1.185047014,0.758560998,-1.732526775,-0.25321356,-0.72731358,0.530636351,0.137189507,-0.877514113,-0.113791504,-0.517807219,0.179608008,-0.419693304,0.34333808,-0.085074381,-0.153120643,-0.008251312,-0.175879281,-0.43040159,0.308698979,-0.332408314,-0.00405347,-0.287201893,-0.185137829,1.534966697,-0.20586486,0.686896335,-0.253387921,-0.602163839,-0.403496163,-0.53921363,2.019483215,-0.388079343,-0.288034928,0.511304195,-0.081645376,-0.368102447,-0.287133106,1.06023512,0.721380689,C2
-0.350142657,1.055651606,1.099768206,-0.192454788,0.316774638,-0.624988568,-0.418942711,-0.251627866,-0.157425134,-0.339309181,-0.269621433,-0.074676789,-0.477288403,-0.342301581,1.023173644,1.385377784,-0.881541906,-0.30379051,-0.936126356,0.635914411,-0.927023631,-0.898813487,-0.14353473,-1.622362393,0.664253491,-0.910177209,-0.1242002,-0.156094013,-0.513099842,0.198497682,0.703007301,0.401472815,-0.246741944,1.033766516,0.733292593,0.435260304,1.1493613,1.471759714,-0.194438556,0.124629083,-0.2147488,-0.355378327,0.249676245,-0.737486883,-0.216145064,-0.105911441,-0.159530093,-0.150296697,-0.293603638,-0.382151316,-0.150784794,-0.066353987,-0.164518178,-0.079028304,0.2867953,-0.222119426,0.813607549,-0.469426775,-0.130970768,-0.75451132,0.104379548,-0.068382523,-0.0973487,0.08175189,-0.160954696,-0.03943615,-0.157417574,-0.337576286,-0.269132087,-0.075799687,0.645501245,-0.379686951,-0.148008517,-0.068271574,1.278078879,-0.211665483,-0.43429366,-0.807313835,-0.159566121,1.654577266,-0.391432627,-0.447124942,-0.216679922,-0.354787438,-0.239731651,-0.246891715,-0.112154431,-0.068411894,-0.079056942,-0.222664968,-0.068411894,-0.107547531,-0.068411894,-0.083885323,-0.068411894,-0.319677662,-0.088457482,-0.055814557,-0.055814557,-0.234685532,-0.384865988,-0.068411894,-0.055814557,-0.150276151,-0.068411894,0.13760508,-0.662613197,-0.496865683,-1.355203137,-0.264135272,-0.694597157,-0.169570026,-0.319677662,-0.150276151,3.010398645,-0.246891715,-0.376621789,-0.055814557,-0.22866478,-0.277350098,-0.079056942,0.332750596,0.404600701,0.447082298,-0.346387961,-0.6630223,-0.264317242,-0.253043161,-0.237845018,0.477575493,-0.697011793,0.74724885,-0.418942711,-0.385528962,-0.5114092,0.20963786,0.434407638,0.61634151,0.152488123,-0.390907498,0.48052558,-0.160424797,-0.393040084,0.167895514,-0.517301254,1.036485276,-0.480636059,1.527266597,0.962780699,-0.393004219,-0.781828654,1.117409797,-1.045378689,0.446307245,-0.696267642,0.277947696,0.653478747,-0.891111361,0.229710193,-0.862293792,0.142889215,-0.706469045,-1.210104297,-0.622544162,0.584879367,-0.392763422,0.076980053,-1.027828452,-0.547546521,-0.408509458,0.087107508,-0.614073651,-0.725029352,-0.763703511,0.036937186,0.528521585,0.978501188,-1.029075626,-0.814537263,-0.514038393,-1.247637909,-1.167551515,1.153029171,0.763655652,0.474433427,0.234654352,0.002345533,0.020651499,0.137189507,-1.48849773,-0.737109613,-1.33728604,-1.737991029,-0.836846481,-0.835452596,-0.57888455,-0.324115603,-0.314530823,-0.175879281,-0.505633432,-0.668266843,-0.377799968,-0.395557496,-0.291771478,-0.185137829,-1.087621093,-0.492205794,-0.278554652,-0.171345778,0.561549242,0.213152453,-0.53921363,-0.448348266,-0.388079343,-0.28807459,0.511331233,-0.081645376,-0.368102447,-0.287172227,-0.600762508,0.124412652,C2
-0.077184887,0.892169669,0.899026128,0.154718555,0.316774638,-0.624988568,0.454193554,-0.251627866,-0.157425134,-0.339309181,-0.269621433,-0.074676789,-0.477288403,-0.034421388,1.023173644,0.994132052,0.269511483,-0.30379051,-0.936126356,0.18482776,-0.927023631,-0.898813487,-0.14353473,-0.140374618,-0.635987385,-0.910177209,0.305460786,0.136899017,-0.085803501,0.605505771,0.533548794,0.016602531,-0.077594638,-0.285588367,2.1382067,0.119175663,1.06528356,0.721066381,-0.466852905,0.124629083,-0.2147488,-0.355378327,-1.600669587,-0.737486883,-0.216145064,-0.105911441,-0.159530093,-0.150296697,-0.293603638,-0.382151316,-0.150784794,-0.066353987,-0.164518178,-0.079028304,0.2867953,-0.222119426,0.73602613,-0.469426775,-0.130970768,0.333587852,0.104379548,-0.068382523,-0.0973487,0.08175189,-0.160954696,-0.03943615,-0.157417574,-0.337576286,-0.269132087,-0.075799687,0.771571973,-0.379686951,-0.148008517,-0.068271574,1.315642882,-0.211665483,-0.43429366,-0.807313835,-0.159566121,-0.476518253,-0.391432627,-0.447124942,-0.216679922,-0.354787438,-0.239731651,-0.246891715,-0.112154431,-0.068411894,-0.079056942,-0.222664968,-0.068411894,-0.107547531,-0.068411894,-0.083885323,-0.068411894,-0.319677662,-0.088457482,-0.055814557,-0.055814557,3.280139643,-0.384865988,-0.068411894,-0.055814557,-0.150276151,-0.068411894,0.13760508,0.103496137,0.08918102,-0.768282612,-0.264135272,-0.694597157,-0.169570026,-0.319677662,-0.150276151,-0.332181919,4.050358676,-0.376621789,-0.055814557,-0.22866478,-0.277350098,-0.079056942,0.090786086,0.12925768,0.032369218,0.266010467,0.191026471,-0.057095097,-0.253043161,-0.237845018,0.477575493,0.253995823,0.74724885,0.454193554,-0.385528962,-0.5114092,0.238873386,-0.38407444,0.652250768,-0.616454234,-0.390907498,0.48052558,0.539808817,0.24887972,0.887072542,-0.682557617,1.325987228,0.264521607,1.17988178,1.412202093,0.96863598,-0.001157181,0.110720777,-0.661478468,0.506826427,-0.407767978,1.514451057,-2.315390285,-0.126131293,0.042779646,-0.474176207,-0.037946127,-0.747428588,0.275297238,-0.632438405,0.53378978,-0.455327466,-0.514437086,-0.341633478,-0.555548412,-0.458841596,-0.507855872,-0.651431978,-0.73598697,-0.713454967,0.469651209,1.491218631,1.55164755,0.218362369,0.437055227,-0.514038393,0.096425714,0.421775155,-1.065602446,-0.597015235,-0.177069013,0.234654352,0.002345533,0.020651499,0.137189507,-0.347754871,-0.725824476,0.756464254,0.74782105,-0.063065553,-0.615132871,-0.57888455,-0.324115603,-0.314530823,-0.175879281,-0.48362636,0.05831738,-0.377799968,-0.395557496,-0.291771478,-0.185137829,-0.879553568,-0.562598737,-0.107485761,0.074780648,0.474810926,0.231091536,1.114374835,-0.448348266,2.916961205,-0.28807459,-2.162787358,-0.081645376,2.472777109,-0.287172227,0.61795034,-0.617808153,C2
-0.402017958,-0.824390667,-0.772955505,-0.53962813,-0.451597741,0.997965617,-1.292078976,-0.251627866,-0.157425134,1.147188183,-0.269621433,-0.074676789,0.586288522,-0.342301581,-0.927459354,-1.255530911,-0.881541906,-0.30379051,1.470217295,-1.414479463,0.73593798,0.774122598,-0.14353473,-0.140374618,-0.635987385,0.804567553,-0.681989261,-0.527338003,-0.247391935,-0.971650573,-0.97068562,-0.721440194,-0.633364357,-0.100054087,-0.80915363,-0.800512455,-0.999994957,-0.619524735,0.020328898,0.124629083,-0.2147488,-0.355378327,0.249676245,0.813534114,0.696073596,-0.105911441,-0.159530093,-0.150296697,-0.293603638,2.60116335,-0.150784794,-0.066353987,-0.164518178,-0.079028304,0.2867953,-0.222119426,-0.755783773,-0.469426775,-0.130970768,-0.75451132,0.104379548,-0.068382523,-0.0973487,0.08175189,-0.160954696,-0.03943615,-0.157417574,1.170456942,-0.269132087,-0.075799687,-0.7517939,2.581410613,-0.148008517,-0.068271574,-1.150578217,-0.211665483,-0.43429366,0.782919474,-0.159566121,-0.476518253,-0.391432627,-0.447124942,-0.216679922,2.818589088,-0.239731651,4.050358676,-0.112154431,-0.068411894,-0.079056942,-0.222664968,-0.068411894,-0.107547531,-0.068411894,-0.083885323,-0.068411894,-0.319677662,-0.088457482,-0.055814557,-0.055814557,-0.234685532,-0.384865988,-0.068411894,-0.055814557,-0.150276151,-0.068411894,-0.253642919,-0.662613197,-0.496865683,0.405558437,-0.264135272,0.853224882,-0.169570026,-0.319677662,-0.150276151,-0.332181919,-0.246891715,-0.376621789,-0.055814557,-0.22866478,-0.277350098,-0.079056942,-0.635666867,-0.78071777,-0.436097345,-0.455066079,-0.373336161,-0.289642521,-0.253043161,-0.237845018,0.477575493,-0.697011793,-0.761303687,-1.292078976,2.097277551,1.509127763,1.223867205,0.391465324,-0.752090807,1.378983432,2.456823641,-1.900871833,-1.015631819,-1.214984345,-1.046964717,1.969505186,-0.909652457,-0.441540769,-0.58792557,-0.973803811,-0.46452309,-0.958708737,0.211463952,0.411310771,-0.204403579,-0.466234909,0.687644922,-0.189249806,-0.082653163,-1.067707249,0.883937251,-1.112223613,1.321838573,0.862829285,1.646535653,0.419349105,-0.680558028,-0.650030283,1.865882197,1.287553858,-0.640037293,-0.644262111,-0.315207035,0.363427363,1.132037011,-0.373922594,-0.879559336,0.582119593,-0.349740146,-0.814537263,1.243227497,0.057175083,-0.117197238,0.786108971,0.79216894,0.369664792,-0.099795977,-0.314506438,0.378915858,0.137189507,0.329905891,-0.653098037,-0.502899244,1.012895798,-0.423124581,0.275029886,0.17849301,-0.324115603,-0.314530823,-0.175879281,-0.50309172,-0.503942446,-0.353256806,-0.327755122,-0.167922927,-0.185137829,0.467385631,-0.145732104,0.104647381,-0.499514347,-0.483425556,-0.332236112,-0.53921363,2.019483215,-0.388079343,-0.287891988,0.511206256,-0.081645376,-0.368102447,-0.286992115,-1.028251801,1.057175209,C2
-0.42129654,-0.660908731,-0.587508062,-0.53962813,-0.067411552,-0.624988568,-1.292078976,-0.251627866,-0.157425134,1.147188183,-0.269621433,-0.074676789,0.586288522,-0.342301581,-0.537332755,-1.255530911,-0.881541906,-0.30379051,1.470217295,0.123315944,0.73593798,0.774122598,-0.14353473,-0.140374618,0.664253491,0.804567553,-0.762533936,-0.424491736,-0.58546853,-0.971650573,-0.696250535,-0.721440194,-0.617255089,-0.100054087,-0.961000562,-0.698993982,-0.999994957,-0.390602773,0.020328898,0.124629083,-0.2147488,-0.355378327,0.249676245,1.453324337,0.514947078,-0.105911441,-0.159530093,-0.150296697,-0.293603638,-0.382151316,-0.150784794,-0.066353987,-0.164518178,-0.079028304,0.2867953,-0.222119426,-0.755783773,-0.469426775,-0.130970768,-0.75451132,0.104379548,-0.068382523,-0.0973487,0.08175189,-0.160954696,-0.03943615,-0.157417574,1.162532182,-0.269132087,-0.075799687,-0.7517939,-0.379686951,-0.148008517,-0.068271574,-0.680482813,-0.211665483,-0.43429366,1.04648122,-0.159566121,-0.476518253,-0.391432627,-0.447124942,-0.216679922,-0.354787438,-0.239731651,-0.246891715,-0.112154431,-0.068411894,-0.079056942,-0.222664968,-0.068411894,-0.107547531,-0.068411894,-0.083885323,-0.068411894,-0.319677662,-0.088457482,-0.055814557,-0.055814557,-0.234685532,-0.384865988,-0.068411894,-0.055814557,-0.150276151,-0.068411894,0.13760508,-1.428722531,-0.496865683,0.405558437,-0.264135272,-0.694597157,-0.169570026,-0.319677662,-0.150276151,-0.332181919,-0.246891715,-0.376621789,-0.055814557,-0.22866478,-0.277350098,-0.079056942,-0.534744355,-0.685849391,-0.564110279,-0.621203682,-1.675172659,-0.174007598,-0.253043161,-0.237845018,-0.926801756,-1.648019408,-0.761303687,-1.292078976,-0.385528962,-0.5114092,-0.904471416,1.739920881,-0.752090807,1.378983432,-0.390907498,0.48052558,-1.22998538,-1.624797446,-1.919270687,2.056316101,-1.233287373,-1.66919379,-0.770215382,-0.744193763,-1.167054543,1.624885217,0.525636873,-0.206112524,-0.030327152,-0.071951649,0.20362781,0.007653221,-1.08029998,0.193926857,0.490989491,0.107759268,1.641165199,-1.695194859,-1.153535223,-0.915110909,-0.452824905,0.00197105,2.130338678,5.504550516,-0.456828311,0.011648738,1.051040352,0.473003542,0.766593055,0.307724989,-0.479538149,-1.16356638,-0.980928896,-0.814537263,-0.514038393,-1.073470832,-1.068945694,1.120655492,0.759378658,0.47532264,0.232561736,0.002345533,0.020651499,0.137189507,0.329905891,1.054181995,-0.502899244,-0.760441497,-0.423124581,0.275029886,0.17849301,-0.324115603,-0.314530823,-0.175879281,-0.063624046,0.053608789,0.441785132,-0.395557496,-0.291771478,-0.185137829,0.034960496,0.215980344,-0.402139043,-0.499514347,-0.284632922,-0.234492103,-0.53921363,-0.448348266,-0.388079343,-0.28807459,0.511331233,-0.081645376,-0.368102447,-0.287172227,-1.577822535,-0.621797392,C2
-0.800578044,-0.742649699,-0.398758368,-0.53962813,-0.067411552,0.997965617,-1.292078976,-0.251627866,-0.157425134,-0.339309181,-0.269621433,-0.074676789,-0.477288403,-0.342301581,-0.537332755,-1.255530911,-0.881541906,-0.30379051,1.470217295,0.123315944,0.73593798,0.774122598,-0.14353473,-0.140374618,-0.635987385,0.804567553,-0.762533936,-0.424491736,-0.58546853,-0.971650573,-0.696250535,-0.721440194,-0.617255089,-0.100054087,-0.961000562,-0.698993982,-0.022278281,-0.619524735,0.020328898,0.124629083,-0.2147488,-0.355378327,0.249676245,1.476235064,0.505346394,-0.105911441,-0.159530093,-0.150296697,-0.293603638,-0.382151316,7.058356685,-0.066353987,-0.164518178,-0.079028304,0.2867953,-0.222119426,-0.755783773,-0.469426775,-0.130970768,-0.75451132,0.104379548,-0.068382523,-0.0973487,0.08175189,-0.160954696,-0.03943615,-0.157417574,-0.337576286,-0.269132087,-0.075799687,-0.7517939,-0.379686951,5.545999593,-0.068271574,-0.796544751,-0.211665483,-0.43429366,1.059328151,-0.159566121,-0.476518253,-0.391432627,-0.447124942,-0.216679922,-0.354787438,-0.239731651,-0.246891715,8.91627725,-0.068411894,-0.079056942,-0.222664968,-0.068411894,-0.107547531,-0.068411894,-0.083885323,-0.068411894,-0.319677662,-0.088457482,-0.055814557,-0.055814557,-0.234685532,-0.384865988,-0.068411894,-0.055814557,-0.150276151,-0.068411894,-0.253642919,-0.662613197,-0.496865683,0.405558437,-0.264135272,0.079313862,-0.169570026,-0.319677662,-0.150276151,-0.332181919,-0.246891715,-0.376621789,-0.055814557,-0.22866478,-0.277350098,-0.079056942,-0.749537159,-0.685849391,-0.650231494,-0.752263806,-1.073285916,-0.598098715,-0.253043161,-0.237845018,0.477575493,-0.697011793,-0.761303687,-1.292078976,2.097277551,1.509127763,0.099127566,0.712007851,-0.752090807,1.378983432,0.951914571,-1.334787812,-0.778158203,-1.240685806,-0.99794646,2.047265398,-0.549060086,-0.733367221,-0.203922713,-0.363052126,-0.55126567,0.361611113,0.599187517,-0.484243508,0.405135941,-0.444769876,0.093218537,0.057775523,-0.119080785,0.560878667,-0.470599086,0.461401689,-0.326364487,0.769426755,1.544295138,0.629838204,0.187830914,-0.009568797,-0.113365779,1.204867649,0.058572781,3.97E-05,0.656109467,0.619105114,0.675232066,0.189916891,-0.24768441,-0.826642024,-0.375447297,-0.814537263,1.543194645,0.077130165,0.06209935,0.752508651,0.774935173,0.354697844,0.195686286,-0.454107884,0.020651499,0.137189507,0.329905891,-0.154460606,-0.502899244,0.249281612,-0.423124581,0.275029886,0.17849301,-0.324115603,-0.314530823,-0.175879281,-0.463447352,0.298285297,-0.353322783,-0.00077271,-0.291771478,-0.185137829,-0.201848135,0.213020238,-0.496029256,-0.827682916,-0.388114367,-0.32899752,-0.53921363,2.019483215,-0.388079343,-0.279396068,0.50537512,-0.081645376,-0.368102447,-0.278612044,-1.029443124,0.217688909,C2
-0.077184887,0.892169669,0.899026128,0.154718555,0.316774638,-0.624988568,0.454193554,-0.251627866,-0.157425134,-0.339309181,-0.269621433,-0.074676789,-0.477288403,-0.034421388,1.413300244,0.994132052,0.269511483,-0.30379051,-0.936126356,0.533394721,-0.927023631,-0.898813487,-0.14353473,-0.140374618,-0.635987385,-0.910177209,0.224916112,0.200619802,-0.229034422,0.605505771,1.160828989,0.710583003,0.0754434,1.198685875,0.939312137,0.82927433,1.018447903,1.001600422,0.020328898,0.124629083,-0.2147488,-0.355378327,0.077006059,-0.737486883,-0.216145064,-0.105911441,-0.159530093,-0.150296697,-0.293603638,-0.382151316,-0.150784794,-0.066353987,-0.164518178,-0.079028304,0.2867953,-0.222119426,-0.755783773,1.454382159,-0.130970768,0.356046868,0.104379548,-0.068382523,-0.0973487,0.08175189,-0.160954696,-0.03943615,-0.157417574,-0.337576286,-0.269132087,-0.075799687,-0.7517939,-0.379686951,-0.148008517,-0.068271574,1.380479293,-0.211665483,-0.43429366,-0.807313835,-0.159566121,-0.476518253,-0.391432627,-0.447124942,-0.216679922,-0.354787438,-0.239731651,-0.246891715,-0.112154431,-0.068411894,-0.079056942,-0.222664968,-0.068411894,-0.107547531,-0.068411894,-0.083885323,-0.068411894,-0.319677662,-0.088457482,-0.055814557,-0.055814557,-0.234685532,1.889021133,-0.068411894,-0.055814557,-0.150276151,-0.068411894,0.13760508,0.103496137,0.08918102,-0.768282612,-0.264135272,-0.694597157,-0.169570026,-0.319677662,-0.150276151,-0.332181919,-0.246891715,-0.376621789,-0.055814557,-0.22866478,-0.277350098,-0.079056942,0.721405612,0.802253443,0.827459739,0.501984612,-0.35932716,0.025850086,-0.253043161,-0.237845018,-0.926801756,0.253995823,-0.761303687,0.454193554,-0.385528962,-0.5114092,-0.904471416,-0.192076564,-0.752090807,-0.436077285,-0.390907498,0.48052558,0.237163161,0.201712791,0.879666219,-0.631647343,1.117422971,0.089724023,0.958779237,1.314735748,0.980581561,0.334713982,-0.16146626,-0.391829636,0.043531805,0.72066231,-1.023629736,1.226823253,-0.143757562,0.567332398,-0.483119008,0.469502644,-0.670424647,0.353634844,-0.76577036,-0.998897831,-0.348108235,0.267387522,-0.305444696,-0.662240295,-0.364217177,0.278656694,-0.288522516,-0.907656318,-1.10173917,-0.343326653,0.422675313,0.903510076,0.262132123,0.507860792,-0.514038393,0.068555831,0.388819611,-1.141748764,-0.540407972,-0.276555196,0.234654352,0.002345533,0.020651499,0.137189507,-0.352555998,-0.71716098,0.747652135,0.744581189,-0.060863169,-0.596476766,-0.57888455,-0.324115603,-0.314530823,-0.175879281,-0.466962859,0.03785916,-0.377799968,-0.395557496,-0.291771478,-0.185137829,-0.670857572,-0.437589972,-0.137913261,0.074780648,0.462957937,0.231091536,-0.53921363,-0.448348266,-0.388079343,-0.28807459,0.511331233,-0.081645376,-0.368102447,-0.287172227,0.180885515,-0.621797392,C2
-0.233739162,0.074759985,0.361628289,0.154718555,0.700960827,-0.624988568,-0.418942711,-0.251627866,-0.157425134,-0.339309181,-0.269621433,-0.074676789,-0.477288403,0.273458805,-0.147206155,-0.727349172,-0.881541906,-0.30379051,0.988948565,-0.184243137,0.73593798,0.774122598,-0.14353473,-0.140374618,0.664253491,0.804567553,0.016243363,0.24031698,0.005145578,-0.167809597,-0.283566196,-0.587679785,-0.12592244,0.456548754,-0.850958721,0.037008922,0.083552048,-0.169094738,0.020328898,0.124629083,-0.2147488,-0.355378327,0.249676245,1.023449587,1.214971405,-0.105911441,-0.159530093,-0.150296697,-0.293603638,-0.382151316,-0.150784794,-0.066353987,-0.164518178,-0.079028304,0.2867953,-0.222119426,0.747380488,-0.469426775,-0.130970768,-0.75451132,0.104379548,-0.068382523,-0.0973487,0.08175189,-0.160954696,-0.03943615,-0.157417574,-0.337576286,-0.269132087,-0.075799687,0.690267535,-0.379686951,-0.148008517,-0.068271574,0.046194688,-0.211665483,-0.43429366,0.743437606,-0.159566121,1.654577266,-0.391432627,-0.447124942,-0.216679922,-0.354787438,-0.239731651,-0.246891715,-0.112154431,-0.068411894,-0.079056942,-0.222664968,-0.068411894,-0.107547531,-0.068411894,-0.083885323,-0.068411894,-0.319677662,-0.088457482,-0.055814557,-0.055814557,-0.234685532,-0.384865988,-0.068411894,-0.055814557,-0.150276151,-0.068411894,0.528853079,-0.662613197,-0.496865683,0.405558437,-0.264135272,-0.694597157,-0.169570026,-0.319677662,-0.150276151,-0.332181919,-0.246891715,-0.376621789,-0.055814557,-0.22866478,-0.277350098,-0.079056942,0.076918187,0.05138418,0.195469479,-0.417676725,-0.6630223,-0.030903117,-0.253043161,-0.237845018,0.477575493,-0.697011793,0.74724885,-0.418942711,-0.385528962,-0.5114092,0.274240519,0.448148309,0.695691326,0.165397121,-0.390907498,0.48052558,0.017882415,-0.397650432,0.169088415,-0.503352567,-0.079890775,-0.49314576,0.434332989,-0.185146963,-0.300486952,-0.725230609,0.75832018,-0.893573798,0.867747063,-0.786880321,-0.014157163,0.816185812,-0.902862207,0.879104915,-0.86825566,0.771109261,-0.65404083,-1.240234145,-0.655524973,0.650274039,-0.312681444,-0.332684502,-1.041747214,-0.574219492,-0.344084322,-0.325013468,-0.165773727,-0.04930958,0.081385637,0.080645673,0.105136497,0.100033869,-0.985451771,-0.814537263,-0.514038393,-1.089831981,-1.079555181,1.122263799,0.760489838,0.474291681,0.235590199,0.002345533,0.020651499,0.137189507,0.329905891,1.054181995,-0.502899244,-0.761594737,-0.423124581,0.275029886,0.17849301,-0.324115603,-0.314530823,-0.175879281,-0.062922143,0.054610395,0.440630476,-0.395557496,-0.291771478,-0.185137829,-0.491552793,-0.383049925,-0.108593838,-0.171345778,0.352998482,0.320010838,-0.53921363,-0.448348266,-0.388079343,-0.28807459,0.511331233,-0.081645376,-0.368102447,-0.287172227,-0.69846851,0.049791648,C2
-0.52676959,-0.252203889,0.074158682,-0.192454788,0.316774638,0.997965617,-1.292078976,-0.251627866,-0.157425134,-0.339309181,-0.269621433,-0.074676789,-0.477288403,-0.034421388,-0.147206155,-0.962096612,-0.881541906,-0.30379051,1.202845779,0.294182102,0.73593798,0.774122598,-0.14353473,-0.140374618,-0.635987385,0.804567553,-0.413417623,-0.067777921,-0.301403111,-0.570295374,-0.320707787,-0.561669011,-0.375616081,0.209169716,-1.067299879,-0.216680069,0.068864799,-0.249141539,0.020328898,0.124629083,-0.2147488,-0.355378327,0.249676245,1.501826402,0.526947934,-0.105911441,-0.159530093,-0.150296697,-0.293603638,-0.382151316,7.488377973,-0.066353987,-0.164518178,-0.079028304,0.2867953,-0.222119426,-0.755783773,-0.469426775,-0.130970768,-0.75451132,0.104379548,-0.068382523,-0.0973487,0.08175189,-0.160954696,-0.03943615,-0.157417574,-0.337576286,-0.269132087,-0.075799687,-0.7517939,-0.379686951,5.628337978,-0.068271574,-0.478374791,-0.211665483,-0.43429366,1.069756813,-0.159566121,-0.476518253,-0.391432627,-0.447124942,-0.216679922,-0.354787438,-0.239731651,-0.246891715,8.91627725,-0.068411894,-0.079056942,-0.222664968,-0.068411894,-0.107547531,-0.068411894,-0.083885323,-0.068411894,-0.319677662,-0.088457482,-0.055814557,-0.055814557,-0.234685532,-0.384865988,-0.068411894,-0.055814557,-0.150276151,-0.068411894,0.13760508,-0.662613197,-0.496865683,0.405558437,-0.264135272,0.079313862,-0.169570026,-0.319677662,-0.150276151,-0.332181919,-0.246891715,-0.376621789,-0.055814557,-0.22866478,-0.277350098,-0.079056942,-0.281097044,-0.209449663,-0.103765842,-0.543544472,-1.073285916,-0.27404457,-0.253043161,-0.237845018,0.477575493,-0.697011793,-0.761303687,-1.292078976,2.097277551,1.509127763,0.082331967,0.699383209,-0.752090807,1.378983432,0.929441949,-1.357083162,-0.624131271,-1.2469354,-0.993454543,2.066173651,-0.177426453,-0.721873569,0.190314859,-0.013527059,-0.575318595,0.30961001,0.606342862,-0.228151475,-0.282949456,0.351812287,-0.311712264,-0.050383128,-0.201336707,0.560878667,-0.51233216,0.464043217,-0.555737927,0.558517815,1.313429459,0.411174771,-0.162527737,-0.197091304,-0.210797114,1.018156855,-0.223287191,-0.188607229,0.261178581,0.133317386,0.172746626,0.133095858,0.4730783,0.158955457,-0.375447297,-0.814537263,1.543194645,0.077130165,0.06209935,0.752508651,0.774935173,0.354697844,0.195686286,-0.454107884,0.020651499,0.137189507,0.329905891,-0.154460606,-0.502899244,0.249281612,-0.423124581,0.275029886,0.17849301,-0.324115603,-0.314530823,-0.175879281,-0.463447352,0.298285297,-0.353322783,-0.00077271,-0.291771478,-0.185137829,-0.322773742,-0.207592667,-0.200154285,-0.499514347,0.072702063,0.090743466,-0.53921363,2.019483215,-0.388079343,-0.257365973,0.490283233,-0.081645376,-0.368102447,-0.256882348,-1.093114902,0.130382333,C2
-0.115685443,1.219133543,1.269921015,0.154718555,0.700960827,-0.624988568,-0.418942711,-0.251627866,-0.157425134,-0.339309181,-0.269621433,-0.074676789,-0.477288403,-0.034421388,1.413300244,0.994132052,0.269511483,-0.30379051,-0.936126356,0.430875026,-0.927023631,-0.898813487,-0.14353473,-0.140374618,-0.635987385,-0.910177209,0.224916112,0.200619802,-0.229034422,0.605505771,1.160828989,0.710583003,0.067388767,1.198685875,1.007849849,0.791431088,1.166234969,1.633111769,0.020328898,0.124629083,-0.2147488,-0.355378327,1.553788554,-0.737486883,-0.216145064,-0.105911441,-0.159530093,-0.150296697,-0.293603638,-0.382151316,-0.150784794,-0.066353987,-0.164518178,-0.079028304,0.2867953,-0.222119426,-0.755783773,-0.469426775,-0.130970768,0.383581364,0.104379548,-0.068382523,-0.0973487,0.08175189,-0.160954696,-0.03943615,-0.157417574,-0.337576286,-0.269132087,-0.075799687,-0.7517939,-0.379686951,-0.148008517,-0.068271574,1.371511759,-0.211665483,-0.43429366,-0.807313835,-0.159566121,-0.476518253,-0.391432627,1.893919469,-0.216679922,-0.354787438,-0.239731651,-0.246891715,-0.112154431,-0.068411894,-0.079056942,-0.222664968,-0.068411894,-0.107547531,-0.068411894,-0.083885323,-0.068411894,-0.319677662,-0.088457482,-0.055814557,-0.055814557,-0.234685532,-0.384865988,-0.068411894,-0.055814557,-0.150276151,-0.068411894,0.528853079,-0.662613197,-0.496865683,-0.768282612,-0.264135272,-0.694597157,-0.169570026,-0.319677662,-0.150276151,-0.332181919,-0.246891715,-0.376621789,-0.055814557,-0.22866478,-0.277350098,-0.079056942,0.701367683,0.766387525,0.69225188,0.170244556,-0.821123888,-0.050226919,-0.253043161,-0.237845018,-0.926801756,-0.697011793,-0.761303687,-0.418942711,-0.385528962,-0.5114092,-0.904471416,0.815099716,-0.752090807,0.510138304,-0.390907498,0.48052558,-0.553491705,-0.685789539,-0.930791231,0.368417237,1.327099205,-0.827223514,1.345103112,1.901451164,0.335488052,0.34614353,0.529972611,-0.80110931,0.239357441,-0.576687647,2.030231425,-1.842229027,-0.312969743,0.530144491,-0.568969903,0.433527315,-0.76872755,0.272284253,1.000111752,-1.017290083,-0.48786077,-0.208631151,-0.343025354,0.764763634,-0.485014308,-0.200216271,-0.427282016,-0.666588723,-0.969265736,-0.52253145,0.58396487,1.042779285,-0.089484903,-0.143966911,-0.514038393,0.450716805,0.840716841,-0.516460543,-1.407349972,0.474433427,0.234654352,0.002345533,0.020651499,0.137189507,-0.286721354,-0.12967615,0.868486823,0.208530549,-0.09508497,-0.835452596,-0.57888455,-0.324115603,-0.314530823,-0.175879281,0.282235026,-0.668266843,-0.377799968,-0.395557496,-0.291771478,-0.185137829,-1.005355165,-0.605008185,-0.123007534,0.074780648,0.841847698,0.510746384,-0.53921363,-0.448348266,-0.388079343,-0.28807459,0.511331233,-0.081645376,-0.368102447,-0.287172227,-0.69846851,-0.621797392,C2
0.039218608,-0.088721952,0.160886212,0.501891897,0.700960827,-0.624988568,0.454193554,-0.251627866,-0.157425134,-0.339309181,-0.269621433,-0.074676789,-0.477288403,0.581338999,-0.147206155,-0.855393228,0.060134873,-0.30379051,0.812483364,-0.01648364,0.73593798,0.774122598,-0.14353473,-0.140374618,-0.635987385,0.804567553,0.365359676,0.597030795,0.289210998,0.235498418,0.084553117,-0.433811603,0.236536073,0.658949785,-0.935309032,0.501596907,-0.016037811,-0.375165663,0.020328898,0.124629083,-0.2147488,0.818497419,0.249676245,0.810045928,0.703535092,-0.105911441,-0.159530093,-0.150296697,-0.293603638,-0.382151316,-0.150784794,-0.066353987,-0.164518178,-0.079028304,0.2867953,-0.222119426,-0.755783773,1.632567301,-0.130970768,0.308199034,0.104379548,-0.068382523,-0.0973487,0.08175189,-0.160954696,-0.03943615,-0.157417574,-0.337576286,-0.269132087,-0.075799687,-0.7517939,-0.379686951,-0.148008517,-0.068271574,-0.319767823,-0.211665483,1.820817283,0.91474446,-0.159566121,-0.476518253,-0.391432627,1.893919469,3.455474545,-0.354787438,-0.239731651,-0.246891715,-0.112154431,-0.068411894,-0.079056942,-0.222664968,-0.068411894,-0.107547531,-0.068411894,-0.083885323,-0.068411894,-0.319677662,-0.088457482,-0.055814557,-0.055814557,-0.234685532,-0.384865988,-0.068411894,-0.055814557,-0.150276151,-0.068411894,0.528853079,0.103496137,-0.496865683,0.992478962,-0.264135272,0.853224882,-0.169570026,-0.319677662,-0.150276151,-0.332181919,-0.246891715,-0.376621789,-0.055814557,-0.22866478,-0.277350098,-0.079056942,0.507956024,0.511724339,0.661609585,0.868794436,-0.35932716,0.264067087,-0.253043161,-0.237845018,-0.926801756,0.253995823,-0.761303687,0.454193554,-0.385528962,-0.5114092,-0.904471416,-0.039339096,-0.752090807,-0.292584457,-0.390907498,0.48052558,0.277567853,0.33833597,-0.688175308,-0.290460124,-0.124140179,-0.049330328,-0.200973091,0.059653915,-0.661343835,0.50004097,-0.023001797,-0.268869033,0.143690178,0.330382873,-0.699972765,0.159028575,-0.108505024,1.208296133,-0.465233405,1.089566611,-0.637657013,0.410881557,-0.731380839,-0.976418413,-0.287655826,-0.249020614,-0.278999048,-0.635567324,-0.323951467,-0.240847916,0.378590466,-0.378038118,-0.384555406,0.045678883,0.256345457,0.217877046,0.604995197,0.335011912,-0.514038393,1.730190472,0.32521206,-0.723632278,-1.568246872,0.831879361,-1.320999932,1.405023552,1.146868049,-3.138655408,-0.130150225,-0.224413955,-0.557146858,0.254077763,-0.496372696,0.365348216,-0.083862577,-0.079435314,0.007753793,-0.082923221,-0.464853555,0.175415629,-0.362097622,-0.023191237,-0.261307581,-0.008851274,-0.009618675,-0.317192199,0.052409082,0.074780648,0.248755315,0.334086307,-0.53921363,-0.448348266,-0.388079343,-0.28807459,0.511331233,-0.081645376,-0.368102447,-0.287172227,0.021002966,-0.621797392,C2
0.172678133,-0.987872604,-0.969004911,-0.886801473,-0.451597741,-0.624988568,-1.292078976,-0.251627866,-0.157425134,-0.339309181,1.928305184,-0.074676789,0.586288522,-0.650181775,-0.927459354,-1.632803581,-0.881541906,-0.30379051,1.813980673,-1.414479463,0.73593798,0.774122598,-0.14353473,-0.140374618,-0.635987385,0.804567553,-1.111650248,-0.808319228,-0.711737287,-1.37139066,-1.052513187,-0.804056916,-0.794457029,-0.497627548,-0.965730623,-1.116157852,-0.999994957,-0.619524735,0.020328898,0.124629083,-0.2147488,-0.355378327,0.249676245,1.454949668,0.489505264,-0.105911441,-0.159530093,-0.150296697,-0.293603638,-0.382151316,-0.150784794,-0.066353987,-0.164518178,-0.079028304,0.2867953,-0.222119426,-0.755783773,-0.469426775,-0.130970768,-0.75451132,0.104379548,-0.068382523,-0.0973487,0.08175189,-0.160954696,-0.03943615,-0.157417574,-0.337576286,1.992078175,-0.075799687,-0.7517939,-0.379686951,-0.148008517,-0.068271574,-1.150578217,-0.211665483,-0.43429366,1.027580754,-0.159566121,-0.476518253,-0.391432627,-0.447124942,-0.216679922,-0.354787438,-0.239731651,-0.246891715,-0.112154431,-0.068411894,-0.079056942,-0.222664968,-0.068411894,-0.107547531,-0.068411894,-0.083885323,-0.068411894,-0.319677662,-0.088457482,-0.055814557,-0.055814557,-0.234685532,-0.384865988,-0.068411894,-0.055814557,-0.150276151,-0.068411894,-0.058018919,-1.428722531,-0.496865683,0.405558437,-0.264135272,0.079313862,-0.169570026,-0.319677662,-0.150276151,-0.332181919,-0.246891715,-0.376621789,-0.055814557,-0.22866478,-0.277350098,-0.079056942,-1.120335029,-1.100384122,-0.532686489,-1.132557304,-1.675172659,0.255597378,-0.253043161,-0.237845018,-0.926801756,-1.648019408,-0.761303687,-1.292078976,-0.385528962,-0.5114092,-0.904471416,1.739920881,-0.752090807,1.378983432,-0.390907498,0.48052558,-1.698943508,-1.624797446,-1.907983895,2.456676714,-1.662712487,-1.66919379,-1.178381274,-1.086819678,-1.17224147,3.070384922,0.532327034,-0.329793011,0.06670175,-0.01176217,0.227072457,-0.074125271,-1.08029998,0.411914347,0.425360727,0.319152277,1.460810698,-1.695194859,-1.153535223,-0.819062485,0.037875009,0.062555244,1.978369931,5.211147839,-0.062065219,0.072596206,1.707479526,1.97054466,1.314758989,-1.112596028,-2.175094622,-1.480136005,-0.906082617,-0.814537263,-0.514038393,-1.005387338,-0.927901924,1.07832068,0.76402884,0.469908126,0.233681685,-0.014713164,0.020651499,0.137189507,0.329905891,-0.629273859,-0.502899244,1.030567448,-0.423124581,0.275029886,0.17849301,-0.324115603,-0.314530823,-0.175879281,-0.49951645,-0.455911391,-0.375022368,-0.293307142,-0.291771478,-0.185137829,-0.172655878,1.005572729,-0.967811272,-0.089303636,-0.525972247,-0.478156646,-0.53921363,-0.448348266,-0.388079343,-0.28807459,0.511331233,-0.081645376,-0.368102447,-0.287172227,-1.577822535,-0.621797392,C2
-0.077184887,0.892169669,0.899026128,0.154718555,0.316774638,-0.624988568,0.454193554,-0.251627866,-0.157425134,-0.339309181,-0.269621433,-0.074676789,-0.477288403,-0.034421388,1.413300244,0.994132052,0.269511483,-0.30379051,-0.936126356,0.738434107,-0.927023631,-0.898813487,-0.14353473,-0.140374618,-0.635987385,-0.910177209,0.224916112,0.173506126,-0.07438741,0.605505771,1.160828989,1.300702452,0.139880469,1.198685875,0.500129211,1.121323077,0.099401474,1.581835111,0.020328898,0.124629083,-0.2147488,-0.355378327,-1.700969307,-0.737486883,-0.216145064,-0.105911441,-0.159530093,-0.150296697,-0.293603638,-0.382151316,-0.150784794,-0.066353987,-0.164518178,-0.079028304,0.2867953,-0.222119426,0.672891699,-0.469426775,-0.130970768,0.287137501,0.104379548,-0.068382523,-0.0973487,0.08175189,-0.160954696,-0.03943615,-0.157417574,-0.337576286,-0.269132087,-0.075799687,0.761778821,-0.379686951,-0.148008517,-0.068271574,1.125549296,-0.211665483,-0.43429366,-0.807313835,-0.159566121,-0.476518253,-0.391432627,-0.447124942,-0.216679922,-0.354787438,-0.239731651,-0.246891715,-0.112154431,-0.068411894,-0.079056942,-0.222664968,-0.068411894,-0.107547531,-0.068411894,-0.083885323,-0.068411894,-0.319677662,-0.088457482,-0.055814557,-0.055814557,3.280139643,-0.384865988,-0.068411894,-0.055814557,-0.150276151,-0.068411894,0.13760508,0.103496137,0.08918102,-0.768282612,-0.264135272,-0.694597157,-0.169570026,-0.319677662,-0.150276151,-0.332181919,4.050358676,-0.376621789,-0.055814557,-0.22866478,-0.277350098,-0.079056942,1.029257662,1.079042541,1.056835529,0.622074622,0.191026471,-0.017963249,-0.253043161,-0.237845018,0.477575493,0.253995823,0.74724885,0.454193554,-0.385528962,-0.5114092,0.234412803,-0.388640185,0.646771946,-0.620743631,-0.390907498,0.48052558,0.545989231,0.250597317,0.843109314,-0.676326646,1.323368639,0.268678326,1.16472518,1.418776021,1.016565996,-0.000566575,-0.054167153,0.023832893,-0.276980326,-0.008268634,0.1518879,-0.019559995,-0.127306377,0.020989958,-0.474772393,-0.059025324,-0.740875061,0.275297238,-0.635736486,0.539920531,-0.445317219,0.189493557,-0.341633478,-0.55821571,-0.450788454,0.200295664,-0.453966536,-0.699461577,-0.900744994,-0.548756543,0.311788742,0.994570713,0.230034303,0.44122026,-0.514038393,0.126585166,0.457438066,-1.08679105,-0.657815629,-0.177069013,0.234654352,0.002345533,0.020651499,0.137189507,-0.342559321,-0.725860302,0.766000307,0.74782105,-0.065500855,-0.619574801,-0.57888455,-0.324115603,-0.314530823,-0.175879281,-0.48369667,0.055695847,-0.377799968,-0.395557496,-0.291771478,-0.185137829,-0.915207159,-0.554528368,-0.133286459,0.074780648,0.476377141,0.231091536,1.114374835,-0.448348266,2.926206904,-0.28807459,-2.17026583,-0.081645376,2.481351193,-0.287172227,0.619173007,-0.619675171,C2
-0.469533304,-1.151354541,-0.970221529,-0.192454788,-0.067411552,-0.624988568,-0.418942711,-0.251627866,1.590536697,-0.339309181,-0.269621433,-0.074676789,0.586288522,-0.034421388,-0.927459354,-1.353342345,0.269511483,-0.30379051,1.202845779,-1.414479463,0.73593798,0.774122598,-0.14353473,-0.140374618,-0.635987385,0.804567553,-0.332872949,-0.131498707,-0.198837715,-0.570295374,-0.636564784,-0.747838436,-0.44005315,-0.615427084,-0.572732916,-0.593657327,-0.999994957,-0.619524735,0.020328898,0.124629083,-0.2147488,0.357943988,0.249676245,0.548452376,-0.437920881,-0.105911441,-0.159530093,-0.150296697,-0.293603638,-0.382151316,-0.150784794,-0.066353987,-0.164518178,-0.079028304,0.2867953,-0.222119426,-0.755783773,-0.469426775,-0.130970768,0.282498329,0.104379548,-0.068382523,-0.0973487,0.08175189,-0.160954696,-0.03943615,1.605981609,-0.337576286,-0.269132087,-0.075799687,-0.7517939,-0.379686951,-0.148008517,-0.068271574,-1.150578217,-0.211665483,1.927440169,0.88206837,-0.159566121,-0.476518253,-0.391432627,1.893919469,-0.216679922,-0.354787438,-0.239731651,-0.246891715,-0.112154431,-0.068411894,-0.079056942,-0.222664968,-0.068411894,-0.107547531,-0.068411894,-0.083885323,-0.068411894,-0.319677662,-0.088457482,-0.055814557,-0.055814557,-0.234685532,-0.384865988,-0.068411894,-0.055814557,-0.150276151,-0.068411894,-0.058018919,-0.662613197,-0.496865683,0.992478962,-0.264135272,0.853224882,-0.169570026,-0.319677662,-0.150276151,-0.332181919,-0.246891715,-0.376621789,-0.055814557,-0.22866478,-0.277350098,-0.079056942,-0.578900336,-0.564517445,-0.534133862,-0.129332119,-0.821123888,-0.328692071,-0.253043161,-0.237845018,-0.926801756,-0.697011793,-0.761303687,-0.418942711,-0.385528962,-0.5114092,-0.904471416,0.825227698,-0.752090807,0.519653277,-0.390907498,0.48052558,-0.332996955,-0.520204334,-0.646696812,-0.132563639,-1.044248187,-0.836444172,-1.203648302,-0.576373438,-0.502210476,0.827965494,0.008489552,-0.202721917,0.022896899,0.237334838,0.077973742,-0.17845877,0.061882242,1.440811934,-0.372228269,1.314500819,-0.211677767,1.233426423,2.052199631,-0.833367569,0.363010239,0.322201793,0.100983158,-0.94817454,0.199502768,0.333799642,2.184171832,1.459189156,0.90607141,-0.736703038,-1.364475786,-1.318905113,0.30689585,-0.087738962,-0.514038393,1.268839464,0.358930957,-0.660094782,-1.387562085,0.842444265,-0.434246307,-0.19089752,-0.459584238,0.137189507,-0.042866851,-0.373138178,-0.635977353,0.550499638,-0.490426851,0.392173173,-0.032360903,-0.035561607,-0.054084113,-0.175879281,-0.445869819,-0.117864468,-0.310504203,-0.016082923,-0.291666135,-0.185137829,0.035810307,0.913144994,-0.852178582,-0.581556489,-0.788865275,-0.693100433,-0.53921363,-0.448348266,-0.388079343,-0.28807459,0.511331233,-0.081645376,-0.368102447,-0.287172227,-0.600762508,-0.621797392,C2
-0.214038557,-0.579167762,-0.417355253,-0.192454788,-0.067411552,0.997965617,-1.292078976,3.606666078,-0.157425134,-0.339309181,-0.269621433,-0.074676789,-0.477288403,-0.034421388,-0.927459354,-1.353342345,0.269511483,-0.30379051,1.202845779,-1.414479463,0.73593798,0.774122598,-0.14353473,-0.140374618,-0.635987385,0.804567553,-0.332872949,-0.158612383,-0.04050844,-0.570295374,-0.636564784,-0.666362378,-0.423943883,-0.615427084,-0.728035279,-0.495243827,-0.999994957,-0.619524735,0.020328898,0.124629083,-0.2147488,-0.355378327,1.572391769,1.359516578,0.358455917,-0.105911441,-0.159530093,-0.150296697,-0.293603638,2.588470145,-0.150784794,-0.066353987,-0.164518178,-0.079028304,0.2867953,-0.222119426,-0.755783773,-0.469426775,-0.130970768,-0.75451132,0.104379548,-0.068382523,-0.0973487,0.08175189,5.955326634,-0.03943615,-0.157417574,-0.337576286,-0.269132087,-0.075799687,-0.7517939,2.660545494,-0.148008517,-0.068271574,-1.150578217,-0.211665483,-0.43429366,1.124676204,-0.159566121,-0.476518253,-0.391432627,-0.447124942,-0.216679922,-0.354787438,-0.239731651,-0.246891715,-0.112154431,-0.068411894,-0.079056942,-0.222664968,-0.068411894,-0.107547531,-0.068411894,-0.083885323,-0.068411894,-0.319677662,-0.088457482,-0.055814557,-0.055814557,-0.234685532,-0.384865988,-0.068411894,17.91647287,-0.150276151,-0.068411894,-0.253642919,-0.662613197,-0.496865683,0.992478962,-0.264135272,0.079313862,-0.169570026,-0.319677662,-0.150276151,-0.332181919,-0.246891715,-0.376621789,-0.055814557,-0.22866478,-0.277350098,-0.079056942,-0.429526906,-0.471823622,-0.397708182,-1.181785742,1.232195477,-0.065147384,-0.253043161,-0.237845018,0.477575493,-0.697011793,-0.761303687,-1.292078976,2.097277551,1.509127763,1.022685142,0.411635712,-0.752090807,1.378983432,2.187640711,-1.865250556,-0.492731029,-1.319604005,-1.035491298,0.327431852,-0.72463495,-0.459904175,-0.488284357,-0.711945812,-0.608579192,-0.875626585,0.276181282,-0.042979173,0.260507021,-0.259954153,0.058130289,-0.117583112,-0.116730616,-0.487555075,-0.469406712,0.4601435,-0.047839595,0.775452724,1.5508913,0.360085184,-0.770650252,-0.370189003,-0.110582027,1.210202243,0.400831319,-0.362742853,-0.011003516,-0.129665445,0.629551571,0.32978405,0.54868278,-0.210643598,0.133740844,-0.814537263,2.43592727,-0.592879308,0.59570416,-0.873949279,0.570142673,-0.468106502,0.140762792,0.034763721,-0.030346987,0.137189507,-0.262893689,-0.629452988,-0.562891137,-0.135761443,-0.479075768,0.383524709,-0.035783056,-0.108121969,0.047766556,-0.175879281,-0.40333219,0.579316933,-0.265640359,-0.39242437,-0.227569528,-0.185137829,-1.009056269,-0.256697262,-0.455871141,-0.253387921,0.080696165,0.396733916,1.114374835,2.019483215,-0.388064216,-0.28807459,0.511331233,-0.081645376,-0.368089443,-0.287172227,-0.113698084,0.870619305,C2
0.352749183,0.892169669,0.64214579,0.154718555,-0.451597741,-0.624988568,1.327329819,3.606666078,-0.157425134,-0.339309181,-0.269621433,-0.074676789,-0.477288403,-0.034421388,1.413300244,0.994132052,0.269511483,-0.30379051,-0.936126356,0.430875026,-0.927023631,-0.898813487,-0.14353473,-1.622362393,3.264735245,-0.910177209,0.224916112,0.200619802,-0.229034422,0.605505771,1.160828989,0.710583003,0.067388767,1.198685875,1.007849849,0.791431088,0.999762725,0.397011688,0.020328898,0.124629083,-0.2147488,-0.355378327,0.249676245,-0.737486883,-0.216145064,-0.105911441,-0.159530093,-0.150296697,-0.293603638,-0.382151316,-0.150784794,-0.066353987,-0.164518178,-0.079028304,0.2867953,-0.222119426,-0.755783773,3.373081982,4.2788587,-0.75451132,0.104379548,-0.068382523,-0.0973487,-15.31376359,-0.160954696,-0.03943615,-0.157417574,-0.337576286,-0.269132087,-0.075799687,-0.7517939,-0.379686951,-0.148008517,-0.068271574,1.324835751,-0.211665483,-0.43429366,-0.807313835,-0.159566121,-0.476518253,-0.391432627,-0.447124942,-0.216679922,-0.354787438,-0.239731651,-0.246891715,-0.112154431,-0.068411894,-0.079056942,-0.222664968,-0.068411894,-0.107547531,-0.068411894,-0.083885323,-0.068411894,-0.319677662,-0.088457482,17.91647287,-0.055814557,-0.234685532,-0.384865988,-0.068411894,-0.055814557,-0.150276151,-0.068411894,-0.644890917,0.86960547,1.261274427,-0.768282612,-0.264135272,-0.694597157,-0.169570026,-0.319677662,-0.150276151,-0.332181919,-0.246891715,-0.376621789,-0.055814557,-0.22866478,-0.277350098,-0.079056942,0.372980374,0.766387525,0.690473942,0.956678692,1.063587137,1.297037277,-0.253043161,-0.237845018,-0.926801756,1.205003438,-0.761303687,1.327329819,-0.385528962,-0.5114092,-0.904471416,-2.516720197,-0.752090807,-2.620018754,-0.390907498,0.48052558,0.264701951,0.446074869,0.489370322,0.564081842,1.764222726,2.206112483,0.511914569,-0.014502111,5.314344537,-2.081166281,-3.830318637,0.273432133,1.018816332,-1.233665054,3.669759073,-2.911756317,-0.438703794,-0.888500282,-0.632761887,1.38088425,2.901247493,-0.637637174,-1.475098133,-1.045900251,-0.67054778,-0.003798874,-0.763371971,-1.237042812,4.024745247,0.005844217,-1.398598518,-0.3670805,-1.142851615,0.390975932,-0.156959034,0.121459901,-1.029075626,-0.814537263,-0.514038393,-1.247637909,-1.167551515,1.153029171,0.763655652,0.474433427,0.234654352,0.002345533,0.020651499,0.137189507,-1.48849773,-0.737109613,-1.33728604,-1.737991029,-0.836846481,-0.835452596,-0.57888455,-0.324115603,-0.314530823,-0.175879281,-0.505633432,-0.668266843,-0.377799968,-0.395557496,-0.291771478,-0.185137829,-1.112519314,-0.812966589,0.063051856,0.484991359,0.414280864,0.162484453,-0.53921363,-0.448348266,-0.388079343,-0.28807459,0.511331233,-0.081645376,-0.368102447,-0.287172227,1.060239539,-0.621797392,C2
-0.29316306,-0.742649699,-0.429347637,0.154718555,0.316774638,0.997965617,-0.418942711,-0.251627866,-0.157425134,-0.339309181,-0.269621433,-0.074676789,-0.477288403,0.273458805,-0.537332755,-1.079470331,-0.881541906,1.530617397,0.988948565,-0.184243137,0.73593798,0.774122598,-0.14353473,1.341613156,-0.635987385,0.804567553,0.016243363,0.24031698,0.005145578,-0.167809597,-0.283566196,-0.587679785,-0.12592244,0.456548754,-0.850958721,0.037008922,-0.182557723,-0.619524735,0.020328898,0.124629083,-0.2147488,-0.355378327,0.249676245,0.794410171,0.673723202,-0.105911441,-0.159530093,-0.150296697,1.752873687,-0.382151316,-0.150784794,-0.066353987,-0.164518178,-0.079028304,0.2867953,4.138426344,-0.755783773,1.517066939,-0.130970768,-0.75451132,0.104379548,-0.068382523,-0.0973487,0.08175189,-0.160954696,-0.03943615,-0.157417574,-0.337576286,-0.269132087,-0.075799687,-0.7517939,-0.379686951,-0.148008517,-0.068271574,-0.690929024,-0.211665483,-0.43429366,0.917567689,-0.159566121,-0.476518253,-0.391432627,-0.447124942,3.455474545,-0.354787438,-0.239731651,-0.246891715,-0.112154431,-0.068411894,-0.079056942,3.994871476,-0.068411894,-0.107547531,-0.068411894,-0.083885323,-0.068411894,-0.319677662,-0.088457482,-0.055814557,-0.055814557,-0.234685532,-0.384865988,-0.068411894,-0.055814557,-0.150276151,-0.068411894,0.13760508,0.103496137,-0.496865683,0.992478962,-0.264135272,0.853224882,-0.169570026,-0.319677662,-0.150276151,-0.332181919,-0.246891715,-0.376621789,-0.055814557,4.373213921,-0.277350098,-0.079056942,0.013361684,0.05138418,0.241962819,0.423224237,-0.023111123,-0.092709296,-0.253043161,-0.237845018,-0.926801756,0.253995823,-0.761303687,-0.418942711,-0.385528962,1.509127763,-0.904471416,0.364321465,-0.752090807,0.602638312,-0.390907498,-0.489438244,-0.443140491,-0.119644171,-1.393023993,0.750815649,-0.737796856,-0.416828616,-0.778222959,-0.381212285,-0.64495844,1.191804011,0.134986461,-0.357719656,0.587172586,-0.391963519,-0.196682327,0.317226862,-0.303569066,1.604994419,-0.564200409,1.473329841,0.066847125,-0.08927393,-0.728082758,-0.925328826,0.788445744,-0.168241688,-0.5100505,-0.632900027,0.541761305,-0.159584625,0.59206662,0.21732579,0.583871077,0.133095858,-0.756754576,-0.071374389,0.184805557,-0.412611555,1.591266632,1.061733783,0.038253405,0.106923975,-0.098032691,0.641711081,-0.480271581,0.462130727,0.645382943,-1.722460445,0.918787096,0.589616012,0.680142136,0.240827056,0.941153625,2.626577765,1.059809155,0.603775302,1.028331746,0.183495488,0.639317159,0.433685774,0.169143064,0.518823067,1.985903018,2.565133152,0.390264427,0.111579189,-0.168565622,-0.335430063,-0.215852956,-0.099971373,-0.53921363,-0.448348266,-0.388079343,-0.28807459,0.511331233,-0.081645376,-0.368102447,-0.287172227,-0.258791498,-0.621797392,C2
0.293376428,-0.579167762,-0.447944522,0.501891897,0.316774638,0.997965617,-0.418942711,3.606666078,-0.157425134,-0.339309181,-0.269621433,-0.074676789,-0.477288403,0.581338999,-0.927459354,-1.495613519,1.943770963,-0.30379051,0.813941752,-1.414479463,0.73593798,0.774122598,-0.14353473,1.341613156,-0.635987385,0.804567553,0.365359676,0.581928923,0.349226667,0.235498418,0.084553117,-0.433811603,0.188208271,-0.015720326,-0.780657552,0.278057663,-0.999994957,-0.619524735,0.020328898,0.124629083,-0.2147488,-0.355378327,-0.759750362,1.181901133,0.114992153,-0.105911441,-0.159530093,5.192693407,-0.293603638,-0.382151316,-0.150784794,-0.066353987,4.940936811,-0.079028304,0.2867953,-0.222119426,-0.755783773,-0.469426775,-0.130970768,0.382336333,0.104379548,-0.068382523,-0.0973487,0.08175189,5.375832441,-0.03943615,-0.157417574,-0.337576286,-0.269132087,-0.075799687,-0.7517939,-0.379686951,-0.148008517,-0.068271574,-1.150578217,-0.211665483,-0.43429366,1.262968415,-0.159566121,-0.476518253,-0.391432627,1.893919469,-0.216679922,-0.354787438,-0.239731651,-0.246891715,-0.112154431,-0.068411894,-0.079056942,-0.222664968,-0.068411894,-0.107547531,-0.068411894,-0.083885323,-0.068411894,-0.319677662,-0.088457482,-0.055814557,-0.055814557,-0.234685532,-0.384865988,-0.068411894,-0.055814557,5.898338941,-0.068411894,0.13760508,0.103496137,0.08918102,2.166320011,-0.264135272,0.079313862,-0.169570026,-0.319677662,5.898338941,-0.332181919,-0.246891715,-0.376621789,-0.055814557,-0.22866478,-0.277350098,-0.079056942,0.49731185,0.29879779,0.330650493,0.740737585,1.402805102,0.389442765,-0.253043161,-0.237845018,-0.926801756,0.253995823,-0.761303687,-0.418942711,-0.385528962,1.509127763,-0.904471416,-0.098773392,-0.752090807,0.379832532,-0.390907498,-0.888442986,0.058200412,0.37949985,1.225975695,-1.404387039,-0.748857319,0.004779495,-1.168451748,-0.464847168,-0.162145055,0.214937233,-0.151710309,-0.059150869,0.355308178,-0.16037561,-0.037973223,-0.272096523,0.30805895,0.543280886,-0.253886978,1.405212995,-0.172833588,0.492232148,0.35038977,-0.970287663,-0.062425265,-0.171126649,-0.241418391,0.239306112,0.239768478,-0.162486886,1.024355833,-0.264809399,-0.320602714,-0.107300822,0.543642481,0.780310391,0.634175034,0.153832966,0.349442334,1.210922456,0.005732943,-1.26104903,-1.255336743,1.215737555,-2.80915048,-1.466968022,-0.21776642,0.317909336,0.875426978,-0.459459414,0.68321009,1.960167376,0.64650526,2.082544295,1.35737205,1.11958349,0.802156287,0.779019467,0.290729464,3.303877421,-0.135667166,0.088354603,-0.182158393,-0.180288207,0.12666827,-0.256301064,0.050768844,0.238864933,0.197986998,0.610275484,-0.53921363,2.019483215,-0.388079343,-0.288074541,0.511331198,-0.081645376,-0.368102447,-0.287172179,0.420709333,-0.621797392,C2
-0.077184887,0.892169669,0.899026128,0.154718555,0.316774638,-0.624988568,0.454193554,-0.251627866,-0.157425134,-0.339309181,-0.269621433,-0.074676789,-0.477288403,-0.034421388,1.413300244,0.994132052,0.269511483,-0.30379051,-0.936126356,0.635914411,-0.927023631,-0.898813487,-0.14353473,-0.140374618,-0.635987385,-0.910177209,0.224916112,0.200619802,-0.249100879,0.605505771,1.160828989,0.710583003,0.099607301,1.198685875,0.754798399,0.940950106,0.832486307,1.297973268,0.020328898,0.124629083,-0.2147488,-0.355378327,-0.003359828,-0.737486883,-0.216145064,-0.105911441,-0.159530093,-0.150296697,-0.293603638,-0.382151316,-0.150784794,-0.066353987,-0.164518178,-0.079028304,0.2867953,-0.222119426,-0.755783773,1.349867822,-0.130970768,0.341207007,0.104379548,-0.068382523,-0.0973487,0.08175189,-0.160954696,-0.03943615,-0.157417574,-0.337576286,-0.269132087,-0.075799687,-0.7517939,-0.379686951,-0.148008517,-0.068271574,1.304401541,-0.211665483,-0.43429366,-0.807313835,-0.159566121,-0.476518253,-0.391432627,-0.447124942,-0.216679922,-0.354787438,-0.239731651,-0.246891715,-0.112154431,-0.068411894,-0.079056942,-0.222664968,-0.068411894,-0.107547531,-0.068411894,-0.083885323,-0.068411894,-0.319677662,-0.088457482,-0.055814557,-0.055814557,-0.234685532,1.889021133,-0.068411894,-0.055814557,-0.150276151,-0.068411894,0.13760508,0.103496137,0.08918102,-0.768282612,-0.264135272,-0.694597157,-0.169570026,-0.319677662,-0.150276151,-0.332181919,-0.246891715,-0.376621789,-0.055814557,-0.22866478,-0.277350098,-0.079056942,0.841248843,0.90809412,0.944788303,0.641672198,-0.35932716,0.028765685,-0.253043161,-0.237845018,-0.926801756,0.253995823,-0.761303687,0.454193554,-0.385528962,-0.5114092,-0.904471416,-0.176598605,-0.752090807,-0.42153615,-0.390907498,0.48052558,0.296373726,0.211293124,0.876022758,-0.641096725,1.106420667,0.07563267,0.950665694,1.309148068,0.967510593,0.330923869,0.060517986,-0.889120783,0.981979057,-0.652246189,0.171636838,-0.495699698,-0.161383831,0.583773696,-0.49206181,0.485407845,-0.30998067,0.350621859,-0.81228986,-0.998897831,0.217201705,0.26450256,-0.306836573,-0.702249751,0.078705637,0.275754434,-0.507335574,-0.779817442,-0.809384005,-0.430743627,0.331949937,0.978501188,0.279640025,0.547428608,-0.514038393,0.034452756,0.34849345,-1.173507904,-0.473317882,-0.337303397,0.234654352,0.002345533,0.020651499,0.137189507,-0.358430917,-0.711673273,0.736869151,0.738985225,-0.058230997,-0.583695281,-0.57888455,-0.324115603,-0.314530823,-0.175879281,-0.456416339,0.031521796,-0.377799968,-0.395557496,-0.291771478,-0.185137829,-0.690903494,-0.443689711,-0.141182041,0.074780648,0.46526751,0.231091536,-0.53921363,-0.448348266,-0.388079343,-0.28807459,0.511331233,-0.081645376,-0.368102447,-0.287172227,0.180885515,-0.621797392,C2
-0.370215315,0.565205795,0.611556521,-0.192454788,-0.067411552,0.997965617,-0.418942711,-0.251627866,-0.157425134,-0.339309181,-0.269621433,-0.074676789,-0.477288403,-0.342301581,0.633047045,0.945226335,0.413393158,-0.30379051,-0.936126356,0.806780569,-0.927023631,-0.898813487,-0.14353473,-0.140374618,-0.635987385,-0.910177209,-0.1242002,-0.156094013,-0.513099842,0.198497682,0.703007301,0.401472815,-0.246741944,1.033766516,0.733292593,0.435260304,1.045946637,1.075123456,0.020328898,0.124629083,-0.2147488,-0.355378327,2.685484115,-0.737486883,-0.216145064,-0.105911441,-0.159530093,-0.150296697,-0.293603638,-0.382151316,-0.150784794,-0.066353987,4.566100433,-0.079028304,0.2867953,-0.222119426,0.664610575,-0.469426775,-0.130970768,-0.75451132,0.104379548,-0.068382523,-0.0973487,0.08175189,-0.160954696,-0.03943615,-0.157417574,-0.337576286,-0.269132087,-0.075799687,0.762793741,-0.379686951,-0.148008517,-0.068271574,0.765120784,-0.211665483,-0.43429366,-0.807313835,-0.159566121,-0.476518253,-0.391432627,-0.447124942,-0.216679922,-0.354787438,-0.239731651,-0.246891715,-0.112154431,-0.068411894,-0.079056942,-0.222664968,-0.068411894,-0.107547531,14.6173413,-0.083885323,-0.068411894,-0.319677662,-0.088457482,-0.055814557,-0.055814557,-0.234685532,-0.384865988,-0.068411894,-0.055814557,-0.150276151,-0.068411894,-0.253642919,0.103496137,0.675227723,-0.768282612,-0.264135272,-0.694597157,-0.169570026,-0.319677662,-0.150276151,-0.332181919,-0.246891715,-0.376621789,-0.055814557,-0.22866478,-0.277350098,-0.079056942,0.370636359,0.404600701,0.452838001,0.185236754,-0.044624947,-0.331385443,-0.253043161,-0.237845018,0.477575493,0.253995823,0.74724885,-0.418942711,-0.385528962,1.509127763,0.135811137,0.580200064,0.525662008,0.461000078,-0.390907498,0.158058282,-0.569000597,-0.552144996,0.701906533,1.357296294,0.553265405,-0.613367547,0.969906373,0.619115003,-0.498731241,0.098264844,0.870286459,-0.707979148,0.520969995,-0.748290312,0.257642344,0.624939019,-0.046225541,-0.081940422,-0.433635506,-0.158599474,-0.555737927,0.275297238,-0.408168889,0.689102125,-0.162527737,-0.139392071,-0.341633478,-0.374172212,-0.223287191,-0.130562021,-0.52868319,-0.535097308,-0.93728939,-0.050479788,0.543642481,1.080274841,-0.537395387,-0.671676622,1.246119437,-0.719858887,-0.543334889,0.278424195,0.168231103,0.534829464,0.234654352,0.002345533,0.020651499,0.137189507,-0.488356923,-0.513812882,0.498399445,0.78199795,-0.032917817,-0.667547644,-0.57888455,-0.324115603,-0.314530823,-0.175879281,-0.437784154,-0.056127125,-0.377799968,-0.395557496,-0.291771478,-0.185137829,-0.562889357,-0.299209646,-0.223294823,-0.253387921,0.202369553,-0.039380149,1.114374835,2.019483215,-0.388058563,-0.288074583,0.511331233,0.422602811,-0.368084585,-0.287172227,-0.113698084,0.124407985,C2
-0.546527975,-0.415685825,-0.708474716,-0.886801473,-1.21997012,-0.624988568,0.454193554,3.606666078,-0.157425134,-0.339309181,-0.269621433,-0.074676789,-0.477288403,-0.958061968,-0.147206155,-0.375228012,4.298198348,-0.30379051,-0.936126356,0.343001004,-0.927023631,-0.898813487,-0.14353473,-0.140374618,1.964494368,-0.910177209,-0.716013877,-1.002747167,-0.616056268,-0.615518495,-1.052513187,-0.482769661,-0.778347761,-0.497627548,1.823917092,-1.015070478,-0.191875431,-0.563671101,0.020328898,0.124629083,4.047822959,1.034600204,0.249676245,-0.737486883,-0.216145064,-0.105911441,-0.159530093,-0.150296697,-0.293603638,-0.382151316,-0.150784794,-0.066353987,-0.164518178,-0.079028304,0.2867953,-0.222119426,-0.755783773,-0.469426775,8.375404588,-0.75451132,-8.4295366,-0.068382523,-0.0973487,0.08175189,-0.160954696,-0.03943615,-0.157417574,-0.337576286,-0.269132087,-0.075799687,-0.7517939,-0.379686951,-0.148008517,-0.068271574,-0.295022609,4.680503115,1.634555967,-0.807313835,-0.159566121,-0.476518253,-0.391432627,-0.447124942,-0.216679922,-0.354787438,-0.239731651,-0.246891715,-0.112154431,-0.068411894,-0.079056942,-0.222664968,-0.068411894,-0.107547531,-0.068411894,-0.083885323,-0.068411894,-0.319677662,11.30486621,-0.055814557,-0.055814557,-0.234685532,-0.384865988,-0.068411894,-0.055814557,-0.150276151,-0.068411894,-1.427386915,0.103496137,-0.496865683,0.405558437,-0.264135272,-0.694597157,-0.169570026,-0.319677662,-0.150276151,-0.332181919,-0.246891715,-0.376621789,-0.055814557,-0.22866478,-0.277350098,-0.079056942,-1.327702459,-1.006887506,-1.036270418,1.440963163,0.032924883,0.696816829,-0.253043161,-0.237845018,-0.926801756,0.253995823,-0.761303687,0.454193554,-0.385528962,-0.5114092,-0.904471416,-1.373311294,-0.752090807,-1.545816204,-0.390907498,0.48052558,-1.316902824,-0.435414978,-1.785240028,1.410153234,0.692047205,1.165136838,-0.52495041,-0.446541605,4.991709926,-1.816125335,-4.44020692,1.447722922,2.959082377,-2.442831589,0.003870408,0.329988525,0.233555861,-1.630041876,-0.291686603,0.860370802,3.349734237,-0.010936323,0.690092126,-0.861977738,0.488138329,-0.401923581,-0.473861718,0.51403771,4.568332337,-0.394667717,1.9476402,1.934019267,-0.27035417,-1.501601564,-1.669048635,-1.341938098,-0.848160642,-0.814537263,-0.514038393,-0.592185927,-0.779993192,0.830873168,0.682728231,0.474433427,0.234654352,0.002345533,0.020651499,0.137189507,0.329905891,1.054181995,0.435110556,-0.173909669,-0.012593162,-0.835452596,-0.57888455,-0.324115603,-0.314530823,-0.175879281,0.369854419,-0.668266843,-0.377799968,-0.395557496,-0.291771478,-0.185137829,0.609707257,0.452983363,-0.346469096,-0.581556489,-0.748452253,-0.873279462,-0.53921363,-0.448348266,-0.388079343,-0.28807459,0.511331233,-0.081645376,-0.368102447,-0.287172227,0.934617534,-0.621797392,C2
-0.19608929,-0.906131636,-0.682925725,0.154718555,-0.067411552,-0.624988568,1.327329819,-0.251627866,-0.157425134,-0.339309181,-0.269621433,-0.074676789,-0.477288403,0.273458805,-0.927459354,-1.079470331,0.154406145,-0.30379051,0.988948565,-1.414479463,0.73593798,0.774122598,-0.14353473,-0.140374618,-0.635987385,0.804567553,0.096788038,0.161494322,0.178667374,-0.167809597,-0.558282102,-0.735209647,-0.222578043,-1.027725488,-0.286034954,-0.442386202,-0.999994957,-0.619524735,0.020328898,0.124629083,-0.2147488,0.337544304,0.249676245,0.188524568,-0.551919412,-0.105911441,-0.159530093,-0.150296697,-0.293603638,-0.382151316,-0.150784794,-0.066353987,-0.164518178,-0.079028304,0.2867953,-0.222119426,2.308630472,-0.469426775,-0.130970768,0.29507362,0.104379548,-0.068382523,-0.0973487,0.08175189,-0.160954696,-0.03943615,-0.157417574,-0.337576286,-0.269132087,-0.075799687,2.397781568,-0.379686951,-0.148008517,-0.068271574,-1.150578217,-0.211665483,1.954619174,0.496149671,-0.159566121,-0.476518253,3.343124581,1.893919469,-0.216679922,-0.354787438,-0.239731651,-0.246891715,-0.112154431,-0.068411894,-0.079056942,-0.222664968,-0.068411894,-0.107547531,-0.068411894,-0.083885323,-0.068411894,-0.319677662,-0.088457482,-0.055814557,-0.055814557,-0.234685532,-0.384865988,-0.068411894,-0.055814557,-0.150276151,-0.068411894,-0.253642919,0.86960547,-0.496865683,0.992478962,3.785938897,1.627135901,-0.169570026,-0.319677662,-0.150276151,-0.332181919,-0.246891715,-0.376621789,-0.055814557,-0.22866478,-0.277350098,-0.079056942,-0.401793813,-0.402962381,-0.332048651,-0.297141861,1.203176831,-0.086985755,6.681416237,5.578820496,1.881952742,1.205003438,2.255801386,1.327329819,-0.385528962,-0.5114092,1.602066795,-1.354762001,2.326626841,-1.528389632,-0.390907498,0.48052558,1.047341436,1.082960668,0.28125035,-0.146348385,-0.168500613,1.148249299,-0.478246534,-0.471579213,-0.193282756,0.011333892,-0.150373221,-0.320961985,0.946605838,-0.834176736,0.504575702,-0.125080631,0.269048562,0.029172983,-0.273679151,-0.050806259,-0.557649329,0.606725572,-0.523601728,0.885286139,-0.410281354,-0.073037953,-0.188527094,-0.467527609,-0.422602457,-0.063810032,0.319884524,0.107749611,0.355468604,0.653226856,1.173679815,-0.596312178,0.604995197,0.553676158,-0.514038393,1.177781069,0.325262224,-0.73259807,-1.38246435,0.644352307,0.832982923,-0.853921097,-1.373307099,0.137189507,-0.09741896,-0.141805114,-0.607968924,-0.700312748,-0.496006959,0.384075304,0.004599122,-0.013062271,-0.075909256,-0.175879281,-0.282750314,-0.167222763,0.81636998,-0.14676653,-0.260951695,-0.185137829,0.331098687,-0.024742108,-0.072607009,-0.253387921,-0.562875974,-0.355451699,2.767963299,-0.448348266,1.507302606,-0.28807459,-1.022226421,-0.081645376,1.261273348,-0.287172227,0.431547564,0.338504439,C2
-0.19608929,-0.906131636,-0.682925725,0.154718555,-0.067411552,-0.624988568,1.327329819,-0.251627866,-0.157425134,-0.339309181,-0.269621433,-0.074676789,-0.477288403,0.273458805,-0.927459354,-1.079470331,0.154406145,-0.30379051,0.988948565,-1.414479463,0.73593798,0.774122598,-0.14353473,-0.140374618,-0.635987385,0.804567553,0.096788038,0.149482518,0.258013214,-0.167809597,-0.558282102,-0.668810281,-0.190359508,-0.285588367,-0.498939445,-0.275108322,-0.999994957,-0.619524735,0.020328898,0.124629083,-0.2147488,0.503408408,0.249676245,0.115293032,-0.308023617,-0.105911441,-0.159530093,-0.150296697,-0.293603638,-0.382151316,-0.150784794,-0.066353987,-0.164518178,-0.079028304,0.2867953,-0.222119426,2.283926535,-0.469426775,-0.130970768,0.29183758,0.104379548,-0.068382523,-0.0973487,0.08175189,-0.160954696,-0.03943615,-0.157417574,-0.337576286,-0.269132087,-0.075799687,2.371455006,-0.379686951,-0.148008517,-0.068271574,-1.150578217,-0.211665483,1.887009708,0.552210271,-0.159566121,-0.476518253,3.343124581,1.893919469,-0.216679922,-0.354787438,-0.239731651,-0.246891715,-0.112154431,-0.068411894,-0.079056942,-0.222664968,-0.068411894,-0.107547531,-0.068411894,-0.083885323,-0.068411894,-0.319677662,-0.088457482,-0.055814557,-0.055814557,-0.234685532,-0.384865988,-0.068411894,-0.055814557,-0.150276151,-0.068411894,-0.253642919,0.86960547,-0.496865683,0.992478962,3.785938897,1.627135901,-0.169570026,-0.319677662,-0.150276151,-0.332181919,-0.246891715,-0.376621789,-0.055814557,-0.22866478,-0.277350098,-0.079056942,-0.218908074,-0.244424829,-0.047751612,-0.059830784,1.203176831,-0.088520271,3.214186538,3.639931991,1.881952742,1.205003438,2.255801386,1.327329819,-0.385528962,-0.5114092,1.600175857,-1.367392049,2.324304249,-1.540255229,-0.390907498,0.48052558,0.988704547,1.138210548,0.280867121,-0.27852618,-0.170869744,1.159747873,-0.483148721,-0.478376512,-0.195044336,-0.023740901,-0.198534964,-0.302208958,1.210703215,-1.185037473,0.446296997,0.339883236,0.267117546,0.029241528,-0.274658865,-0.051042811,-0.557681507,0.606725572,-0.523601728,0.885286139,-0.412783916,-0.107657493,-0.188527094,-0.467527609,-0.424615742,-0.098637157,0.293200004,0.11140215,0.583871077,0.264221319,0.442836508,-0.135652485,0.546635525,0.516190859,-0.514038393,1.060785712,0.333708387,-0.704281124,-1.330813094,0.537646772,0.008823671,1.708215238,-0.531832092,-2.528308757,-0.117421399,-0.183600506,-0.55154111,-0.670810559,-0.490733859,0.389220338,-0.084468479,-0.082810215,-0.010433826,-0.099854503,-0.288023574,-0.16205736,0.796577108,-0.208007383,-0.222587115,-0.142285564,0.331098687,-0.022885045,-0.075502873,-0.253387921,-0.565338058,-0.355451699,2.767963299,-0.448348266,0.084879759,-0.28807459,0.128658995,-0.081645376,0.038469593,-0.287172227,0.68310929,0.625843011,C2
-0.507547616,-0.415685825,-0.111288761,-0.192454788,0.316774638,-0.624988568,-0.418942711,-0.251627866,-0.157425134,-0.339309181,-0.269621433,-0.074676789,-0.477288403,-0.034421388,-0.927459354,-0.962096612,-0.881541906,-0.30379051,1.202845779,-1.414479463,0.73593798,0.774122598,-0.14353473,-0.140374618,-0.635987385,0.804567553,-0.252328274,-0.234344973,0.131744457,-0.570295374,-0.876799933,-0.747838436,-0.456162417,-0.615427084,-0.462340391,-0.669569004,1.047339027,-0.619524735,0.020328898,0.124629083,-0.2147488,-0.355378327,0.249676245,0.441811624,1.460652928,-0.105911441,-0.159530093,-0.150296697,-0.293603638,-0.382151316,-0.150784794,-0.066353987,-0.164518178,-0.079028304,0.2867953,-0.222119426,0.788204206,-0.469426775,-0.130970768,-0.75451132,0.104379548,-0.068382523,-0.0973487,0.08175189,-0.160954696,-0.03943615,-0.157417574,-0.337576286,-0.269132087,-0.075799687,0.743089619,-0.379686951,-0.148008517,-0.068271574,-0.42892246,-0.211665483,-0.43429366,0.393259687,-0.159566121,-0.476518253,1.475845977,-0.447124942,-0.216679922,-0.354787438,-0.239731651,-0.246891715,-0.112154431,-0.068411894,-0.079056942,-0.222664968,-0.068411894,-0.107547531,-0.068411894,-0.083885323,-0.068411894,-0.319677662,-0.088457482,-0.055814557,-0.055814557,-0.234685532,-0.384865988,-0.068411894,-0.055814557,-0.150276151,-0.068411894,0.13760508,-0.662613197,-0.496865683,0.405558437,-0.264135272,0.079313862,-0.169570026,-0.319677662,-0.150276151,-0.332181919,-0.246891715,2.655183609,-0.055814557,-0.22866478,-0.277350098,-0.079056942,-0.642719759,-0.636017225,-0.743074711,-0.975517964,-0.6630223,-0.416018076,-0.253043161,-0.237845018,0.477575493,-0.697011793,0.74724885,-0.418942711,-0.385528962,-0.5114092,0.292592447,0.633862431,0.718232536,0.339870648,-0.390907498,0.48052558,-0.491967149,-0.785301677,0.278600352,0.669492915,-0.144251672,-0.662222525,0.066542232,0.1312533,-0.274205213,0.039728865,-0.015107746,0.783028905,-0.081137665,-0.904850633,0.73893874,-0.446034256,-0.854683739,0.90445161,-0.843812003,0.795629482,-0.375515939,-1.116701766,-0.520303647,0.885286139,0.11275406,-0.11919734,-0.984680289,-0.464860312,-0.001825784,-0.110246198,0.053039331,0.126012307,1.269078494,0.469651209,-0.39889337,-0.360625823,-0.530100428,-0.537562552,-0.514038393,-0.139893413,-0.339971335,0.805945974,0.744430148,0.400391055,0.231309849,-0.150583021,0.020651499,0.137189507,0.329285858,-0.099913095,-0.404561239,0.15959358,-0.422066188,0.278380247,0.176301105,-0.324109472,-0.314530823,-0.175879281,-0.386550743,0.219627346,-0.29335038,0.01235033,-0.291771478,-0.185137829,-0.231255977,-0.014741506,-0.329394709,-0.499514347,-0.101695036,-0.099667263,1.114374835,-0.448348266,-0.380931037,-0.28807459,0.505951037,-0.081645376,-0.361957688,-0.287172227,-0.601739567,0.122811873,C2
-0.507547616,-0.415685825,-0.111288761,-0.192454788,0.316774638,-0.624988568,-0.418942711,-0.251627866,-0.157425134,-0.339309181,-0.269621433,-0.074676789,-0.477288403,-0.034421388,-0.927459354,-0.962096612,-0.881541906,-0.30379051,1.202845779,-1.414479463,0.73593798,0.774122598,-0.14353473,-0.140374618,-0.635987385,0.804567553,-0.252328274,-0.222333169,0.036014425,-0.570295374,-0.876799933,-0.812487194,-0.472271685,-1.440023892,-0.311086838,-0.773853817,0.988439291,-0.619524735,0.020328898,0.124629083,-0.2147488,-0.355378327,0.249676245,0.476869924,1.331965349,-0.105911441,-0.159530093,-0.150296697,-0.293603638,-0.382151316,-0.150784794,-0.066353987,-0.164518178,-0.079028304,0.2867953,-0.222119426,0.81629271,-0.469426775,-0.130970768,-0.75451132,0.104379548,-0.068382523,-0.0973487,0.08175189,-0.160954696,-0.03943615,-0.157417574,-0.337576286,-0.269132087,-0.075799687,0.747241565,-0.379686951,-0.148008517,-0.068271574,-0.401076505,-0.211665483,-0.43429366,0.359975303,-0.159566121,-0.476518253,1.475845977,-0.447124942,-0.216679922,-0.354787438,-0.239731651,-0.246891715,-0.112154431,-0.068411894,-0.079056942,-0.222664968,-0.068411894,-0.107547531,-0.068411894,-0.083885323,-0.068411894,-0.319677662,-0.088457482,-0.055814557,-0.055814557,-0.234685532,-0.384865988,-0.068411894,-0.055814557,-0.150276151,-0.068411894,0.13760508,-0.662613197,-0.496865683,0.405558437,-0.264135272,0.079313862,-0.169570026,-0.319677662,-0.150276151,-0.332181919,-0.246891715,2.655183609,-0.055814557,-0.22866478,-0.277350098,-0.079056942,-0.760579644,-0.734241127,-1.010159319,-0.953072774,-0.6630223,-0.414345416,-0.253043161,-0.237845018,0.477575493,-0.697011793,0.74724885,-0.418942711,-0.385528962,-0.5114092,0.294598202,0.630464333,0.720696153,0.336678224,-0.390907498,0.48052558,-0.491413562,-0.788611798,0.278789984,0.679507742,-0.147108273,-0.659128849,0.073980203,0.116952764,-0.271332778,0.025732044,0.152244196,0.077582205,0.899108276,-1.146440538,-0.263243829,0.819036277,-0.85233357,0.904750608,-0.842619629,0.795918731,-0.375515939,-1.110675796,-0.513707485,0.885286139,0.11275406,-0.113427416,-0.981896536,-0.459525718,-0.001825784,-0.104441678,0.07972385,0.115054689,1.040676022,0.985411358,0.100096198,-0.945020851,-0.538854379,-0.537562552,-0.514038393,-0.177624187,-0.338533481,0.822547861,0.751642332,0.429708665,0.221736592,-0.253868101,0.020651499,0.137189507,0.329903498,-0.107696351,-0.449003337,0.172390956,-0.422380709,0.274909306,0.17712907,-0.324115595,-0.314530823,-0.175879281,-0.388567062,0.226451813,-0.307205391,0.00578881,-0.291771478,-0.185137829,-0.222919493,-0.01465949,-0.325893258,-0.499514347,-0.101776619,-0.099667263,1.114374835,-0.448348266,-0.382227707,-0.28807459,0.505951037,-0.081645376,-0.363072319,-0.287172227,-0.601739567,0.123099367,C2
1.055698802,1.87306129,1.746140315,1.543411925,1.085147016,-0.624988568,2.200466084,-0.251627866,-0.157425134,-0.339309181,-0.269621433,-0.074676789,-0.477288403,1.197099385,2.193553443,0.843652923,0.712224328,-0.30379051,-0.936126356,-0.041447848,-0.927023631,-0.898813487,-0.14353473,1.341613156,-0.635987385,-0.910177209,1.782470708,1.527147167,0.961819852,2.233538126,1.722079689,0.29225842,1.493058915,-0.497627548,3.487150846,1.017363752,1.72900689,0.059947572,-3.567543629,0.124629083,-0.2147488,-0.355378327,-2.539188287,-0.737486883,-0.216145064,-0.105911441,-0.159530093,-0.150296697,-0.293603638,-0.382151316,-0.150784794,-0.066353987,-0.164518178,-0.079028304,0.2867953,-0.222119426,-0.755783773,3.406357415,-0.130970768,1.597588058,0.104379548,-0.068382523,-0.0973487,0.08175189,-0.160954696,-0.03943615,-0.157417574,-0.337576286,-0.269132087,-0.075799687,-0.7517939,-0.379686951,-0.148008517,-0.068271574,2.709707259,-0.211665483,-0.43429366,-0.807313835,-0.159566121,-0.476518253,-0.391432627,-0.447124942,-0.216679922,-0.354787438,-0.239731651,-0.246891715,-0.112154431,-0.068411894,-0.079056942,-0.222664968,-0.068411894,-0.107547531,-0.068411894,-0.083885323,-0.068411894,-0.319677662,-0.088457482,-0.055814557,-0.055814557,-0.234685532,4.162908255,-0.068411894,-0.055814557,-0.150276151,-0.068411894,0.920101078,1.635714804,0.675227723,-0.181362088,-0.264135272,-0.694597157,-0.169570026,-0.319677662,-0.150276151,-0.332181919,-0.246891715,-0.376621789,-0.055814557,-0.22866478,-0.277350098,-0.079056942,0.990330182,1.050821241,0.949079485,1.076574911,0.95651834,1.004070147,-0.253043161,-0.237845018,-0.926801756,2.156011054,-0.761303687,2.200466084,-0.385528962,-0.5114092,-0.904471416,-2.072247277,-0.752090807,-2.202448153,-0.390907498,0.48052558,2.34845779,2.018628831,1.065959552,-0.663771041,2.270426295,1.801458047,1.394519794,2.148267393,0.980821437,0.452682755,-1.443078448,0.645048226,-1.355581098,2.046267227,0.292158824,-0.364871285,0.382040901,0.494543283,-0.216351757,0.399086948,-1.048890824,-0.098312884,-0.847803103,-1.060205336,-0.915798836,-0.725039286,-0.514226129,-0.729722911,-0.829286131,-0.719720881,-0.864908133,-1.521282922,-1.585952411,-0.290876468,1.123276828,1.942672637,1.538749954,1.830258847,-0.514038393,1.362794564,0.375838947,-1.130900194,-1.800822951,-0.482564547,-3.518494714,2.041392915,0.020651499,0.137189507,0.779603555,-0.697880327,0.744181179,0.744875775,0.716829775,3.099545899,2.265343741,0.472574599,-0.314530823,-0.175879281,-0.429449117,0.748635356,-0.234823286,4.953224318,-0.291771478,-0.185137829,-0.218769442,-1.113809969,1.024889537,1.305412781,1.371955299,1.240350059,1.114374835,-0.448348266,-0.387765815,-0.28807459,0.511331233,-0.081645376,-0.367832935,-0.287172227,0.932733206,-0.621797392,C2
-0.116536126,0.565205795,0.596261887,0.154718555,0.316774638,-0.624988568,0.454193554,-0.251627866,-0.157425134,-0.339309181,-0.269621433,-0.074676789,-0.477288403,-0.034421388,1.023173644,0.60288632,1.420564871,-0.30379051,-0.936126356,0.553898658,-0.927023631,-0.898813487,-0.14353473,1.341613156,-0.635987385,-0.910177209,0.305460786,0.097773536,0.134848749,0.605505771,0.533548794,0.710583003,0.011006332,0.456548754,1.372170484,0.546352087,0.778001684,0.359431026,0.020328898,0.124629083,-0.2147488,-0.355378327,0.39905197,-0.737486883,-0.216145064,-0.105911441,-0.159530093,-0.150296697,-0.293603638,-0.382151316,-0.150784794,-0.066353987,-0.164518178,-0.079028304,0.2867953,-0.222119426,-0.755783773,-0.469426775,-0.130970768,1.445496386,0.104379548,-0.068382523,-0.0973487,0.08175189,-0.160954696,-0.03943615,-0.157417574,-0.337576286,-0.269132087,-0.075799687,-0.7517939,-0.379686951,-0.148008517,-0.068271574,1.175346487,-0.211665483,-0.43429366,-0.807313835,-0.159566121,-0.476518253,-0.391432627,4.23496388,-0.216679922,-0.354787438,-0.239731651,-0.246891715,-0.112154431,-0.068411894,-0.079056942,-0.222664968,-0.068411894,-0.107547531,-0.068411894,-0.083885323,-0.068411894,-0.319677662,-0.088457482,-0.055814557,-0.055814557,-0.234685532,-0.384865988,-0.068411894,-0.055814557,-0.150276151,-0.068411894,0.13760508,0.103496137,-0.496865683,-0.181362088,-0.264135272,-0.694597157,-0.169570026,-0.319677662,-0.150276151,-0.332181919,-0.246891715,-0.376621789,-0.055814557,-0.22866478,-0.277350098,-0.079056942,0.489042802,0.534113987,0.604790006,0.724384605,0.032924883,-0.145895394,-0.253043161,-0.237845018,-0.926801756,0.253995823,-0.761303687,0.454193554,-0.385528962,-0.5114092,-0.904471416,-0.073532704,-0.752090807,-0.324708451,-0.390907498,0.48052558,-0.030806485,0.251099153,-0.827399783,0.370147253,1.221164098,-0.018199984,0.596054325,1.917693808,0.431263966,-0.298013963,-1.344596716,2.543908273,-2.759599092,1.599353189,0.365943256,-1.334000315,0.580196966,0.300707437,-0.115815995,0.211571467,-0.596707776,0.436388733,1.174910052,-0.990723497,-0.237604591,-0.150931918,-0.267215772,0.906130378,-0.273631992,-0.142171063,-0.245827285,-0.36342796,-0.76827156,-0.225313737,0.533561884,0.849944995,0.882203641,0.547428608,-0.514038393,2.201648331,0.889650205,-0.557139244,-3.714156672,1.414471182,-6.317680642,3.559779644,0.020651499,0.137189507,0.9241124,0.46883498,0.881571319,0.220077184,0.641316929,3.074157152,2.127156151,0.313213905,-0.314530823,-0.175879281,1.064410725,-0.017963493,2.568788376,2.010771031,-0.291771478,-0.185137829,-0.502996313,-0.366717192,-0.130293108,-0.007261494,0.283393681,0.11027214,1.114374835,-0.448348266,-0.321768751,-0.28807459,0.457679188,-0.081645376,-0.311101162,-0.287172227,0.189654552,-0.621797392,C2
0.11621972,-0.742649699,-0.580903561,0.501891897,-0.067411552,-0.624988568,2.200466084,-0.251627866,-0.157425134,-0.339309181,-0.269621433,-0.074676789,-0.477288403,0.581338999,-0.927459354,-0.855393228,0.060134873,-0.30379051,0.812483364,-1.414479463,0.73593798,0.774122598,-0.14353473,-0.140374618,-0.635987385,0.804567553,0.526449025,0.442475547,0.677176461,0.235498418,-0.469274149,-0.673162109,0.043224866,-0.690390437,-0.080104766,-0.248427158,-0.999994957,-0.619524735,0.020328898,0.124629083,-0.2147488,0.090481453,0.249676245,-0.308440068,-1.069607534,-0.105911441,-0.159530093,-0.150296697,-0.293603638,-0.382151316,-0.150784794,-0.066353987,-0.164518178,-0.079028304,0.2867953,-0.222119426,3.842886517,-0.469426775,-0.130970768,0.300201879,0.104379548,-0.068382523,-0.0973487,0.08175189,-0.160954696,-0.03943615,-0.157417574,-0.337576286,-0.269132087,-0.075799687,4.00888316,-0.379686951,-0.148008517,-0.068271574,-1.150578217,-0.211665483,2.052517678,0.164861383,-0.159566121,-0.476518253,5.210403184,1.893919469,-0.216679922,-0.354787438,-0.239731651,-0.246891715,-0.112154431,-0.068411894,-0.079056942,-0.222664968,-0.068411894,-0.107547531,-0.068411894,-0.083885323,-0.068411894,-0.319677662,-0.088457482,-0.055814557,-0.055814557,-0.234685532,-0.384865988,-0.068411894,-0.055814557,-0.150276151,-0.068411894,-0.253642919,1.635714804,-0.496865683,0.992478962,3.785938897,2.40104692,-0.169570026,-0.319677662,-0.150276151,-0.332181919,-0.246891715,2.655183609,-0.055814557,-0.22866478,-0.277350098,-0.079056942,-0.170559249,-0.202691763,-0.176817689,0.329542287,2.21532719,0.173042307,6.681416237,3.639931991,3.286329991,2.156011054,3.764353922,2.200466084,-0.385528962,-0.5114092,2.922295832,-2.382932902,3.948230858,-2.494329115,-0.390907498,0.48052558,2.175328189,1.923916819,0.27952189,-0.023190786,0.545097289,2.084310636,-0.207153385,0.115386613,-0.161453965,0.246388808,-1.330056976,2.993784115,-4.048536571,4.537880823,-3.728219767,1.680912378,0.348418758,-0.421024398,-0.233410169,-0.486627012,-0.724491244,0.389790663,-0.582967188,0.67479704,-0.640517039,-0.205746189,-0.288742182,-0.515538957,-0.607824724,-0.19731401,-0.181784439,-0.330555107,0.172746626,1.029119846,0.50836039,0.828518963,1.553339872,1.020159881,-0.514038393,3.450571341,0.236690081,-0.924492421,-2.501045385,0.708622142,-0.4219729,0.375504531,0.573135089,-2.82871375,-0.188314889,-0.011636512,-0.552183438,-0.862438081,-0.543600398,0.279470866,0.027017498,0.017311834,-0.01552636,-0.109814081,-0.427940736,0.135240273,-0.232039874,0.671393159,-0.291771478,-0.185137829,0.603672576,-0.347637767,0.382870386,0.074780648,-0.467707148,-0.202101568,4.421551763,-0.448348266,2.874837133,-0.28807459,-2.12873072,-0.081645376,2.467061054,-0.287172227,1.2168404,0.604286238,C2
0.14559895,0.156500953,0.172878596,0.154718555,0.316774638,0.997965617,-1.292078976,-0.251627866,-0.157425134,1.147188183,-0.269621433,-0.074676789,0.586288522,0.273458805,-0.147206155,-0.727349172,-0.881541906,-0.30379051,0.988948565,0.123315944,0.73593798,0.774122598,-0.14353473,-0.140374618,0.664253491,0.804567553,0.016243363,0.213203304,0.162942241,-0.167809597,-0.283566196,-0.487115051,-0.109813172,0.456548754,-0.944869305,0.102884609,-0.999994957,-0.012074249,0.020328898,0.124629083,-0.2147488,-0.355378327,0.249676245,0.967326447,1.041163351,-0.105911441,-0.159530093,-0.150296697,-0.293603638,2.599818679,-0.150784794,-0.066353987,-0.164518178,-0.079028304,0.2867953,-0.222119426,-0.755783773,-0.469426775,-0.130970768,-0.75451132,0.104379548,-0.068382523,-0.0973487,0.08175189,-0.160954696,-0.03943615,-0.157417574,1.204240048,-0.269132087,-0.075799687,-0.7517939,2.332987517,-0.148008517,-0.068271574,-0.324529807,-0.211665483,-0.43429366,0.770307813,-0.159566121,-0.476518253,-0.391432627,-0.447124942,-0.216679922,2.818589088,4.171330723,-0.246891715,-0.112154431,-0.068411894,-0.079056942,-0.222664968,-0.068411894,-0.107547531,-0.068411894,-0.083885323,-0.068411894,-0.319677662,-0.088457482,-0.055814557,-0.055814557,-0.234685532,-0.384865988,-0.068411894,-0.055814557,-0.150276151,-0.068411894,0.528853079,-0.662613197,-0.496865683,0.405558437,-0.264135272,0.079313862,-0.169570026,-0.319677662,-0.150276151,-0.332181919,-0.246891715,-0.376621789,-0.055814557,-0.22866478,-0.277350098,-0.079056942,0.331432264,0.113817838,0.681253413,-0.61587991,-0.373336161,0.296633246,-0.253043161,-0.237845018,0.477575493,-0.697011793,-0.761303687,-1.292078976,2.097277551,1.509127763,1.172859495,0.162093665,-0.752090807,1.378983432,2.388574988,-2.305946418,-0.373785841,-0.590310723,-1.130069976,0.079544444,-0.332690782,-0.232717565,0.188788745,-0.710685709,-0.501047081,-1.903494311,0.694157904,-0.443897716,-0.128856651,0.214638058,0.029698558,-0.422010583,-0.30709432,-0.706056568,0.514301454,-0.762365198,0.630774867,0.287349177,1.016602158,0.086244998,-1.100988408,-0.857747522,1.267375425,0.778100119,-0.978269259,-0.853224859,-0.66744269,-0.315944949,-0.192697329,-0.72796134,0.241224561,1.037422777,-0.845242658,-0.814537263,-0.514038393,-0.914081567,-0.773304122,1.054974277,0.765940908,0.45955452,0.219036442,-0.009015826,0.020651499,0.137189507,0.329905891,-0.647947029,-0.502899244,1.060681167,-0.423124581,0.275029886,0.17849301,-0.324115603,-0.314530823,-0.175879281,-0.502933522,-0.486903808,-0.376955472,-0.309710942,-0.291771478,-0.185137829,0.090022452,-0.772468281,0.659643008,0.15682279,0.426093198,0.505508224,-0.53921363,2.019483215,-0.388079343,3.616081765,-2.163163972,-0.081645376,-0.368102447,3.563747631,-1.575272408,1.389074412,C2
-0.489119718,-1.233095509,-0.970395332,-0.192454788,-0.451597741,0.997965617,0.454193554,-0.251627866,-0.157425134,-0.339309181,-0.269621433,-0.074676789,-0.477288403,-0.034421388,-0.927459354,-1.353342345,0.269511483,-0.30379051,1.202845779,-1.414479463,0.73593798,0.774122598,-0.14353473,-0.140374618,-0.635987385,0.804567553,-0.332872949,-0.158612383,-0.04050844,-0.570295374,-0.636564784,-0.666362378,-0.423943883,-0.615427084,-0.728035279,-0.495243827,-0.999994957,-0.619524735,0.020328898,0.124629083,-0.2147488,-0.355378327,0.249676245,1.006979108,-0.131179004,-0.105911441,-0.159530093,-0.150296697,-0.293603638,-0.382151316,-0.150784794,-0.066353987,-0.164518178,-0.079028304,-1.00798412,-0.222119426,-0.755783773,-0.469426775,-0.130970768,1.32348823,0.104379548,-0.068382523,-0.0973487,0.08175189,-0.160954696,-0.03943615,-0.157417574,-0.337576286,-0.269132087,-0.075799687,-0.7517939,-0.379686951,-0.148008517,-0.068271574,-1.150578217,-0.211665483,-0.43429366,1.269454404,-0.159566121,-0.476518253,-0.391432627,-0.447124942,-0.216679922,-0.354787438,-0.239731651,-0.246891715,-0.112154431,-0.068411894,-0.079056942,-0.222664968,-0.068411894,-0.107547531,-0.068411894,-0.083885323,-0.068411894,2.102350742,-0.088457482,-0.055814557,-0.055814557,-0.234685532,-0.384865988,-0.068411894,-0.055814557,-0.150276151,-0.068411894,-0.644890917,0.86960547,1.84732113,0.405558437,-0.264135272,0.079313862,-0.169570026,2.102350742,-0.150276151,-0.332181919,-0.246891715,-0.376621789,-0.055814557,-0.22866478,3.605551275,-0.079056942,-0.524360744,-0.471823622,-0.638330159,1.402075056,0.617300374,-0.250993288,-0.253043161,-0.237845018,-0.926801756,0.253995823,-0.761303687,0.454193554,-0.385528962,-0.5114092,-0.904471416,0.376090784,-0.752090807,0.097700975,-0.390907498,0.48052558,-0.185259175,0.407849551,1.022329737,-0.531291265,-1.226759293,0.205449456,-1.121337728,-1.379069621,-0.448123425,1.71275208,0.051762412,-0.17029923,0.374903702,0.060881667,0.030853467,-0.322495703,2.209936873,0.132636386,0.708152858,0.048980673,-0.564083254,1.127971953,1.910382143,-0.864021322,-0.187553355,0.267387522,0.052267491,1.500937623,-0.243420046,0.278656694,1.803543796,1.120433411,0.903634538,-0.14663846,-0.953326224,-1.248199207,0.896793559,1.247154193,1.080611899,-0.30396488,2.194416358,-1.186855053,0.551902555,-1.778122499,0.422437473,-0.184567144,0.150697636,0.137189507,-0.853874866,-0.687311707,-0.532182786,-0.079801218,-0.427982424,0.335715044,-0.092565911,-0.140746007,0.01793886,-0.175879281,-0.501098428,0.70055128,-0.341513036,-0.373795121,-0.228708365,-0.185137829,1.60311017,0.656812338,-0.093231982,-0.581556489,-0.869250417,-0.727029321,-0.53921363,-0.448348266,-0.388079343,-0.28807459,0.511331233,-0.081645376,-0.368102447,-0.287172227,0.864827536,-0.621797392,C2
